(Project quickshoe)
(Created by Estlcam version 11 build 11.235)
(Machining time about 00:02:22 hours)

(Required tools:)
(Endmil 3.175)
G21
G90
G94
M03 S18000
G00 Z5.0000


(No. 1: Hole 1)
G00 X19.2247 Y16.4217
G00 Z0.5000
G01 Z0.0000 F1200 S18000
G01 Z-1.0000
G02 X25.3086 Y52.3908 I13.4253 J16.2283 F6000
G02 X53.4167 Y29.1375 I7.3414 J-19.7408
G02 X19.2247 Y16.4217 I-20.7667 J3.5125
G01 Z-2.0000 F1200
G02 X25.3086 Y52.3908 I13.4253 J16.2283 F6000
G02 X53.4167 Y29.1375 I7.3414 J-19.7408
G02 X19.2247 Y16.4217 I-20.7667 J3.5125
G01 Z-3.0000 F1200
G02 X25.3086 Y52.3908 I13.4253 J16.2283 F6000
G02 X53.4167 Y29.1375 I7.3414 J-19.7408
G02 X19.2247 Y16.4217 I-20.7667 J3.5125
G01 Z-4.0000 F1200
G02 X25.3086 Y52.3908 I13.4253 J16.2283 F6000
G02 X53.4167 Y29.1375 I7.3414 J-19.7408
G02 X19.2247 Y16.4217 I-20.7667 J3.5125
G01 Z-5.0000 F1200
G02 X25.3086 Y52.3908 I13.4253 J16.2283 F6000
G02 X53.4167 Y29.1375 I7.3414 J-19.7408
G02 X19.2247 Y16.4217 I-20.7667 J3.5125
G01 Z-6.0000 F1200
G02 X25.3086 Y52.3908 I13.4253 J16.2283 F6000
G02 X53.4167 Y29.1375 I7.3414 J-19.7408
G02 X19.2247 Y16.4217 I-20.7667 J3.5125
G01 Z-7.0000 F1200
G02 X25.3086 Y52.3908 I13.4253 J16.2283 F6000
G02 X53.4167 Y29.1375 I7.3414 J-19.7408
G02 X19.2247 Y16.4217 I-20.7667 J3.5125
G01 Z-8.0000 F1200
G02 X25.3086 Y52.3908 I13.4253 J16.2283 F6000
G02 X53.4167 Y29.1375 I7.3414 J-19.7408
G02 X19.2247 Y16.4217 I-20.7667 J3.5125
G01 Z-9.0000 F1200
G02 X25.3086 Y52.3908 I13.4253 J16.2283 F6000
G02 X53.4167 Y29.1375 I7.3414 J-19.7408
G02 X19.2247 Y16.4217 I-20.7667 J3.5125
G01 Z-10.0000 F1200
G02 X25.3086 Y52.3908 I13.4253 J16.2283 F6000
G02 X53.4167 Y29.1375 I7.3414 J-19.7408
G02 X19.2247 Y16.4217 I-20.7667 J3.5125
G01 Z-11.0000 F1200
G02 X25.3086 Y52.3908 I13.4253 J16.2283 F6000
G02 X53.4167 Y29.1375 I7.3414 J-19.7408
G02 X19.2247 Y16.4217 I-20.7667 J3.5125
G01 Z-12.0000 F1200
G02 X25.3086 Y52.3908 I13.4253 J16.2283 F6000
G02 X53.4167 Y29.1375 I7.3414 J-19.7408
G02 X19.2247 Y16.4217 I-20.7667 J3.5125
G01 Z-13.0000 F1200
G02 X25.3086 Y52.3908 I13.4253 J16.2283 F6000
G02 X53.4167 Y29.1375 I7.3414 J-19.7408
G02 X19.2247 Y16.4217 I-20.7667 J3.5125
G01 Z-14.0000 F1200
G02 X25.3086 Y52.3908 I13.4253 J16.2283 F6000
G02 X53.4167 Y29.1375 I7.3414 J-19.7408
G02 X19.2247 Y16.4217 I-20.7667 J3.5125
G01 Z-15.0000 F1200
G02 X25.3086 Y52.3908 I13.4253 J16.2283 F6000
G02 X53.4167 Y29.1375 I7.3414 J-19.7408
G02 X19.2247 Y16.4217 I-20.7667 J3.5125
G01 Z-16.0000 F1200
G02 X25.3086 Y52.3908 I13.4253 J16.2283 F6000
G02 X53.4167 Y29.1375 I7.3414 J-19.7408
G02 X19.2247 Y16.4217 I-20.7667 J3.5125
G01 Z-17.0000 F1200
G02 X25.3086 Y52.3908 I13.4253 J16.2283 F6000
G02 X53.4167 Y29.1375 I7.3414 J-19.7408
G02 X19.2247 Y16.4217 I-20.7667 J3.5125
G01 Z-18.0000 F1200
G02 X25.3086 Y52.3908 I13.4253 J16.2283 F6000
G02 X53.4167 Y29.1375 I7.3414 J-19.7408
G02 X19.2247 Y16.4217 I-20.7667 J3.5125
G01 Z-19.0000 F1200
G02 X25.3086 Y52.3908 I13.4253 J16.2283 F6000
G02 X53.4167 Y29.1375 I7.3414 J-19.7408
G02 X19.2247 Y16.4217 I-20.7667 J3.5125
G01 Z-19.4000 F1200
G02 X25.3086 Y52.3908 I13.4253 J16.2283 F6000
G02 X53.4167 Y29.1375 I7.3414 J-19.7408
G02 X19.2247 Y16.4217 I-20.7667 J3.5125
G00 Z5.0000


(No. 2: Hole 2)
G00 X5.5045 Y26.4974 Z5.0000
G00 Z0.5000
G01 Z0.0000 F1200
G01 Z-1.0000
G02 X4.7246 Y28.3523 I0.1455 J1.1526 F6000
G02 X6.7209 Y28.1002 I0.9254 J-0.7023
G02 X5.5045 Y26.4974 I-1.0709 J-0.4502
G01 Z-2.0000 F1200
G02 X4.7246 Y28.3523 I0.1455 J1.1526 F6000
G02 X6.7209 Y28.1002 I0.9254 J-0.7023
G02 X5.5045 Y26.4974 I-1.0709 J-0.4502
G01 Z-3.0000 F1200
G02 X4.7246 Y28.3523 I0.1455 J1.1526 F6000
G02 X6.7209 Y28.1002 I0.9254 J-0.7023
G02 X5.5045 Y26.4974 I-1.0709 J-0.4502
G01 Z-4.0000 F1200
G02 X4.7246 Y28.3523 I0.1455 J1.1526 F6000
G02 X6.7209 Y28.1002 I0.9254 J-0.7023
G02 X5.5045 Y26.4974 I-1.0709 J-0.4502
G01 Z-5.0000 F1200
G02 X4.7246 Y28.3523 I0.1455 J1.1526 F6000
G02 X6.7209 Y28.1002 I0.9254 J-0.7023
G02 X5.5045 Y26.4974 I-1.0709 J-0.4502
G01 Z-6.0000 F1200
G02 X4.7246 Y28.3523 I0.1455 J1.1526 F6000
G02 X6.7209 Y28.1002 I0.9254 J-0.7023
G02 X5.5045 Y26.4974 I-1.0709 J-0.4502
G01 Z-7.0000 F1200
G02 X4.7246 Y28.3523 I0.1455 J1.1526 F6000
G02 X6.7209 Y28.1002 I0.9254 J-0.7023
G02 X5.5045 Y26.4974 I-1.0709 J-0.4502
G01 Z-8.0000 F1200
G02 X4.7246 Y28.3523 I0.1455 J1.1526 F6000
G02 X6.7209 Y28.1002 I0.9254 J-0.7023
G02 X5.5045 Y26.4974 I-1.0709 J-0.4502
G01 Z-9.0000 F1200
G02 X4.7246 Y28.3523 I0.1455 J1.1526 F6000
G02 X6.7209 Y28.1002 I0.9254 J-0.7023
G02 X5.5045 Y26.4974 I-1.0709 J-0.4502
G01 Z-10.0000 F1200
G02 X4.7246 Y28.3523 I0.1455 J1.1526 F6000
G02 X6.7209 Y28.1002 I0.9254 J-0.7023
G02 X5.5045 Y26.4974 I-1.0709 J-0.4502
G01 Z-11.0000 F1200
G02 X4.7246 Y28.3523 I0.1455 J1.1526 F6000
G02 X6.7209 Y28.1002 I0.9254 J-0.7023
G02 X5.5045 Y26.4974 I-1.0709 J-0.4502
G01 Z-12.0000 F1200
G02 X4.7246 Y28.3523 I0.1455 J1.1526 F6000
G02 X6.7209 Y28.1002 I0.9254 J-0.7023
G02 X5.5045 Y26.4974 I-1.0709 J-0.4502
G01 Z-13.0000 F1200
G02 X4.7246 Y28.3523 I0.1455 J1.1526 F6000
G02 X6.7209 Y28.1002 I0.9254 J-0.7023
G02 X5.5045 Y26.4974 I-1.0709 J-0.4502
G01 Z-14.0000 F1200
G02 X4.7246 Y28.3523 I0.1455 J1.1526 F6000
G02 X6.7209 Y28.1002 I0.9254 J-0.7023
G02 X5.5045 Y26.4974 I-1.0709 J-0.4502
G01 Z-15.0000 F1200
G02 X4.7246 Y28.3523 I0.1455 J1.1526 F6000
G02 X6.7209 Y28.1002 I0.9254 J-0.7023
G02 X5.5045 Y26.4974 I-1.0709 J-0.4502
G01 Z-16.0000 F1200
G02 X4.7246 Y28.3523 I0.1455 J1.1526 F6000
G02 X6.7209 Y28.1002 I0.9254 J-0.7023
G02 X5.5045 Y26.4974 I-1.0709 J-0.4502
G01 Z-17.0000 F1200
G02 X4.7246 Y28.3523 I0.1455 J1.1526 F6000
G02 X6.7209 Y28.1002 I0.9254 J-0.7023
G02 X5.5045 Y26.4974 I-1.0709 J-0.4502
G01 Z-18.0000 F1200
G02 X4.7246 Y28.3523 I0.1455 J1.1526 F6000
G02 X6.7209 Y28.1002 I0.9254 J-0.7023
G02 X5.5045 Y26.4974 I-1.0709 J-0.4502
G01 Z-19.0000 F1200
G02 X4.7246 Y28.3523 I0.1455 J1.1526 F6000
G02 X6.7209 Y28.1002 I0.9254 J-0.7023
G02 X5.5045 Y26.4974 I-1.0709 J-0.4502
G01 Z-19.4000 F1200
G02 X4.7246 Y28.3523 I0.1455 J1.1526 F6000
G02 X6.7209 Y28.1002 I0.9254 J-0.7023
G02 X5.5045 Y26.4974 I-1.0709 J-0.4502
G00 Z5.0000


(No. 3: Hole 3)
G00 X58.6319 Y27.0905 Z5.0000
G00 Z0.5000
G01 Z0.0000 F1200
G01 Z-1.0000
G02 X59.6745 Y28.8115 I1.0181 J0.5595 F6000
G02 X60.6436 Y27.0481 I-0.0245 J-1.1614
G02 X58.6319 Y27.0905 I-0.9936 J0.6019
G01 Z-2.0000 F1200
G02 X59.6745 Y28.8115 I1.0181 J0.5595 F6000
G02 X60.6436 Y27.0481 I-0.0245 J-1.1614
G02 X58.6319 Y27.0905 I-0.9936 J0.6019
G01 Z-3.0000 F1200
G02 X59.6745 Y28.8115 I1.0181 J0.5595 F6000
G02 X60.6436 Y27.0481 I-0.0245 J-1.1614
G02 X58.6319 Y27.0905 I-0.9936 J0.6019
G01 Z-4.0000 F1200
G02 X59.6745 Y28.8115 I1.0181 J0.5595 F6000
G02 X60.6436 Y27.0481 I-0.0245 J-1.1614
G02 X58.6319 Y27.0905 I-0.9936 J0.6019
G01 Z-5.0000 F1200
G02 X59.6745 Y28.8115 I1.0181 J0.5595 F6000
G02 X60.6436 Y27.0481 I-0.0245 J-1.1614
G02 X58.6319 Y27.0905 I-0.9936 J0.6019
G01 Z-6.0000 F1200
G02 X59.6745 Y28.8115 I1.0181 J0.5595 F6000
G02 X60.6436 Y27.0481 I-0.0245 J-1.1614
G02 X58.6319 Y27.0905 I-0.9936 J0.6019
G01 Z-7.0000 F1200
G02 X59.6745 Y28.8115 I1.0181 J0.5595 F6000
G02 X60.6436 Y27.0481 I-0.0245 J-1.1614
G02 X58.6319 Y27.0905 I-0.9936 J0.6019
G01 Z-8.0000 F1200
G02 X59.6745 Y28.8115 I1.0181 J0.5595 F6000
G02 X60.6436 Y27.0481 I-0.0245 J-1.1614
G02 X58.6319 Y27.0905 I-0.9936 J0.6019
G01 Z-9.0000 F1200
G02 X59.6745 Y28.8115 I1.0181 J0.5595 F6000
G02 X60.6436 Y27.0481 I-0.0245 J-1.1614
G02 X58.6319 Y27.0905 I-0.9936 J0.6019
G01 Z-10.0000 F1200
G02 X59.6745 Y28.8115 I1.0181 J0.5595 F6000
G02 X60.6436 Y27.0481 I-0.0245 J-1.1614
G02 X58.6319 Y27.0905 I-0.9936 J0.6019
G01 Z-11.0000 F1200
G02 X59.6745 Y28.8115 I1.0181 J0.5595 F6000
G02 X60.6436 Y27.0481 I-0.0245 J-1.1614
G02 X58.6319 Y27.0905 I-0.9936 J0.6019
G01 Z-12.0000 F1200
G02 X59.6745 Y28.8115 I1.0181 J0.5595 F6000
G02 X60.6436 Y27.0481 I-0.0245 J-1.1614
G02 X58.6319 Y27.0905 I-0.9936 J0.6019
G01 Z-13.0000 F1200
G02 X59.6745 Y28.8115 I1.0181 J0.5595 F6000
G02 X60.6436 Y27.0481 I-0.0245 J-1.1614
G02 X58.6319 Y27.0905 I-0.9936 J0.6019
G01 Z-14.0000 F1200
G02 X59.6745 Y28.8115 I1.0181 J0.5595 F6000
G02 X60.6436 Y27.0481 I-0.0245 J-1.1614
G02 X58.6319 Y27.0905 I-0.9936 J0.6019
G01 Z-15.0000 F1200
G02 X59.6745 Y28.8115 I1.0181 J0.5595 F6000
G02 X60.6436 Y27.0481 I-0.0245 J-1.1614
G02 X58.6319 Y27.0905 I-0.9936 J0.6019
G01 Z-16.0000 F1200
G02 X59.6745 Y28.8115 I1.0181 J0.5595 F6000
G02 X60.6436 Y27.0481 I-0.0245 J-1.1614
G02 X58.6319 Y27.0905 I-0.9936 J0.6019
G01 Z-17.0000 F1200
G02 X59.6745 Y28.8115 I1.0181 J0.5595 F6000
G02 X60.6436 Y27.0481 I-0.0245 J-1.1614
G02 X58.6319 Y27.0905 I-0.9936 J0.6019
G01 Z-18.0000 F1200
G02 X59.6745 Y28.8115 I1.0181 J0.5595 F6000
G02 X60.6436 Y27.0481 I-0.0245 J-1.1614
G02 X58.6319 Y27.0905 I-0.9936 J0.6019
G01 Z-19.0000 F1200
G02 X59.6745 Y28.8115 I1.0181 J0.5595 F6000
G02 X60.6436 Y27.0481 I-0.0245 J-1.1614
G02 X58.6319 Y27.0905 I-0.9936 J0.6019
G01 Z-19.4000 F1200
G02 X59.6745 Y28.8115 I1.0181 J0.5595 F6000
G02 X60.6436 Y27.0481 I-0.0245 J-1.1614
G02 X58.6319 Y27.0905 I-0.9936 J0.6019
G00 Z5.0000


(No. 4: Part 1)
G00 X9.2122 Y7.6914 Z5.0000
G00 Z0.5000
G01 Z0.0000 F1200
G01 Z-1.0000
G03 X66.8878 Y32.6345 I23.4377 J24.9581 F6000
G01 X66.3273 Y80.0625
G01 X77.6500
G03 X79.2375 Y81.6500 I0.0000 J1.5875
G01 Y87.6500
G03 X78.9094 Y88.6164 I-1.5875 J0.0000
G01 X58.3476 Y88.5577
G03 X58.0633 Y87.6999 I1.3024 J-0.9077
G02 X7.2884 Y89.2456 I-25.4124 J-0.0491
G02 X58.0028 Y89.3845 I25.3617 J-1.5958
G03 X58.3384 Y88.6458 I1.5651 J0.2655
G01 X78.9094 Y88.6836
G03 X79.2375 Y89.6500 I-1.2594 J0.9664
G01 Y95.6500
G03 X77.6500 Y97.2375 I-1.5875 J0.0000
G01 X64.8244
G03 X32.6500 Y121.2383 I-32.1619 J-9.5486
G03 X-0.9372 Y87.6843 I-0.0008 J-33.5864
G01 X-1.5878 Y32.6345
G03 X9.2122 Y7.6914 I34.2356 J0.0139
G01 Z-2.0000 F1200
G03 X66.8878 Y32.6345 I23.4377 J24.9581 F6000
G01 X66.3273 Y80.0625
G01 X77.6500
G03 X79.2375 Y81.6500 I0.0000 J1.5875
G01 Y87.6500
G03 X78.9094 Y88.6164 I-1.5875 J0.0000
G01 X58.3476 Y88.5577
G03 X58.0633 Y87.6999 I1.3024 J-0.9077
G02 X7.2884 Y89.2456 I-25.4124 J-0.0491
G02 X58.0028 Y89.3845 I25.3617 J-1.5958
G03 X58.3384 Y88.6458 I1.5651 J0.2655
G01 X78.9094 Y88.6836
G03 X79.2375 Y89.6500 I-1.2594 J0.9664
G01 Y95.6500
G03 X77.6500 Y97.2375 I-1.5875 J0.0000
G01 X64.8244
G03 X32.6500 Y121.2383 I-32.1619 J-9.5486
G03 X-0.9372 Y87.6843 I-0.0008 J-33.5864
G01 X-1.5878 Y32.6345
G03 X9.2122 Y7.6914 I34.2356 J0.0139
G01 Z-3.0000 F1200
G03 X66.8878 Y32.6345 I23.4377 J24.9581 F6000
G01 X66.3273 Y80.0625
G01 X77.6500
G03 X79.2375 Y81.6500 I0.0000 J1.5875
G01 Y87.6500
G03 X78.9094 Y88.6164 I-1.5875 J0.0000
G01 X58.3476 Y88.5577
G03 X58.0633 Y87.6999 I1.3024 J-0.9077
G02 X7.2884 Y89.2456 I-25.4124 J-0.0491
G02 X58.0028 Y89.3845 I25.3617 J-1.5958
G03 X58.3384 Y88.6458 I1.5651 J0.2655
G01 X78.9094 Y88.6836
G03 X79.2375 Y89.6500 I-1.2594 J0.9664
G01 Y95.6500
G03 X77.6500 Y97.2375 I-1.5875 J0.0000
G01 X64.8244
G03 X32.6500 Y121.2383 I-32.1619 J-9.5486
G03 X-0.9372 Y87.6843 I-0.0008 J-33.5864
G01 X-1.5878 Y32.6345
G03 X9.2122 Y7.6914 I34.2356 J0.0139
G01 Z-4.0000 F1200
G03 X66.8878 Y32.6345 I23.4377 J24.9581 F6000
G01 X66.3273 Y80.0625
G01 X77.6500
G03 X79.2375 Y81.6500 I0.0000 J1.5875
G01 Y87.6500
G03 X78.9094 Y88.6164 I-1.5875 J0.0000
G01 X58.3476 Y88.5577
G03 X58.0633 Y87.6999 I1.3024 J-0.9077
G02 X7.2884 Y89.2456 I-25.4124 J-0.0491
G02 X58.0028 Y89.3845 I25.3617 J-1.5958
G03 X58.3384 Y88.6458 I1.5651 J0.2655
G01 X78.9094 Y88.6836
G03 X79.2375 Y89.6500 I-1.2594 J0.9664
G01 Y95.6500
G03 X77.6500 Y97.2375 I-1.5875 J0.0000
G01 X64.8244
G03 X32.6500 Y121.2383 I-32.1619 J-9.5486
G03 X-0.9372 Y87.6843 I-0.0008 J-33.5864
G01 X-1.5878 Y32.6345
G03 X9.2122 Y7.6914 I34.2356 J0.0139
G01 Z-5.0000 F1200
G03 X66.8878 Y32.6345 I23.4377 J24.9581 F6000
G01 X66.3273 Y80.0625
G01 X77.6500
G03 X79.2375 Y81.6500 I0.0000 J1.5875
G01 Y87.6500
G03 X78.9094 Y88.6164 I-1.5875 J0.0000
G01 X58.3476 Y88.5577
G03 X58.0633 Y87.6999 I1.3024 J-0.9077
G02 X7.2884 Y89.2456 I-25.4124 J-0.0491
G02 X58.0028 Y89.3845 I25.3617 J-1.5958
G03 X58.3384 Y88.6458 I1.5651 J0.2655
G01 X78.9094 Y88.6836
G03 X79.2375 Y89.6500 I-1.2594 J0.9664
G01 Y95.6500
G03 X77.6500 Y97.2375 I-1.5875 J0.0000
G01 X64.8244
G03 X32.6500 Y121.2383 I-32.1619 J-9.5486
G03 X-0.9372 Y87.6843 I-0.0008 J-33.5864
G01 X-1.5878 Y32.6345
G03 X9.2122 Y7.6914 I34.2356 J0.0139
G01 Z-6.0000 F1200
G03 X66.8878 Y32.6345 I23.4377 J24.9581 F6000
G01 X66.3273 Y80.0625
G01 X77.6500
G03 X79.2375 Y81.6500 I0.0000 J1.5875
G01 Y87.6500
G03 X78.9094 Y88.6164 I-1.5875 J0.0000
G01 X58.3476 Y88.5577
G03 X58.0633 Y87.6999 I1.3024 J-0.9077
G02 X7.2884 Y89.2456 I-25.4124 J-0.0491
G02 X58.0028 Y89.3845 I25.3617 J-1.5958
G03 X58.3384 Y88.6458 I1.5651 J0.2655
G01 X78.9094 Y88.6836
G03 X79.2375 Y89.6500 I-1.2594 J0.9664
G01 Y95.6500
G03 X77.6500 Y97.2375 I-1.5875 J0.0000
G01 X64.8244
G03 X32.6500 Y121.2383 I-32.1619 J-9.5486
G03 X-0.9372 Y87.6843 I-0.0008 J-33.5864
G01 X-1.5878 Y32.6345
G03 X9.2122 Y7.6914 I34.2356 J0.0139
G01 Z-7.0000 F1200
G03 X66.8878 Y32.6345 I23.4377 J24.9581 F6000
G01 X66.3273 Y80.0625
G01 X77.6500
G03 X79.2375 Y81.6500 I0.0000 J1.5875
G01 Y87.6500
G03 X78.9094 Y88.6164 I-1.5875 J0.0000
G01 X58.3476 Y88.5577
G03 X58.0633 Y87.6999 I1.3024 J-0.9077
G02 X7.2884 Y89.2456 I-25.4124 J-0.0491
G02 X58.0028 Y89.3845 I25.3617 J-1.5958
G03 X58.3384 Y88.6458 I1.5651 J0.2655
G01 X78.9094 Y88.6836
G03 X79.2375 Y89.6500 I-1.2594 J0.9664
G01 Y95.6500
G03 X77.6500 Y97.2375 I-1.5875 J0.0000
G01 X64.8244
G03 X32.6500 Y121.2383 I-32.1619 J-9.5486
G03 X-0.9372 Y87.6843 I-0.0008 J-33.5864
G01 X-1.5878 Y32.6345
G03 X9.2122 Y7.6914 I34.2356 J0.0139
G01 Z-8.0000 F1200
G03 X66.8878 Y32.6345 I23.4377 J24.9581 F6000
G01 X66.3273 Y80.0625
G01 X77.6500
G03 X79.2375 Y81.6500 I0.0000 J1.5875
G01 Y87.6500
G03 X78.9094 Y88.6164 I-1.5875 J0.0000
G01 X58.3476 Y88.5577
G03 X58.0633 Y87.6999 I1.3024 J-0.9077
G02 X7.2884 Y89.2456 I-25.4124 J-0.0491
G02 X58.0028 Y89.3845 I25.3617 J-1.5958
G03 X58.3384 Y88.6458 I1.5651 J0.2655
G01 X78.9094 Y88.6836
G03 X79.2375 Y89.6500 I-1.2594 J0.9664
G01 Y95.6500
G03 X77.6500 Y97.2375 I-1.5875 J0.0000
G01 X64.8244
G03 X32.6500 Y121.2383 I-32.1619 J-9.5486
G03 X-0.9372 Y87.6843 I-0.0008 J-33.5864
G01 X-1.5878 Y32.6345
G03 X9.2122 Y7.6914 I34.2356 J0.0139
G01 Z-9.0000 F1200
G03 X66.8878 Y32.6345 I23.4377 J24.9581 F6000
G01 X66.3273 Y80.0625
G01 X77.6500
G03 X79.2375 Y81.6500 I0.0000 J1.5875
G01 Y87.6500
G03 X78.9094 Y88.6164 I-1.5875 J0.0000
G01 X58.3476 Y88.5577
G03 X58.0633 Y87.6999 I1.3024 J-0.9077
G02 X7.2884 Y89.2456 I-25.4124 J-0.0491
G02 X58.0028 Y89.3845 I25.3617 J-1.5958
G03 X58.3384 Y88.6458 I1.5651 J0.2655
G01 X78.9094 Y88.6836
G03 X79.2375 Y89.6500 I-1.2594 J0.9664
G01 Y95.6500
G03 X77.6500 Y97.2375 I-1.5875 J0.0000
G01 X64.8244
G03 X32.6500 Y121.2383 I-32.1619 J-9.5486
G03 X-0.9372 Y87.6843 I-0.0008 J-33.5864
G01 X-1.5878 Y32.6345
G03 X9.2122 Y7.6914 I34.2356 J0.0139
G01 Z-10.0000 F1200
G03 X66.8878 Y32.6345 I23.4377 J24.9581 F6000
G01 X66.3273 Y80.0625
G01 X77.6500
G03 X79.2375 Y81.6500 I0.0000 J1.5875
G01 Y87.6500
G03 X78.9094 Y88.6164 I-1.5875 J0.0000
G01 X58.3476 Y88.5577
G03 X58.0633 Y87.6999 I1.3024 J-0.9077
G02 X7.2884 Y89.2456 I-25.4124 J-0.0491
G02 X58.0028 Y89.3845 I25.3617 J-1.5958
G03 X58.3384 Y88.6458 I1.5651 J0.2655
G01 X78.9094 Y88.6836
G03 X79.2375 Y89.6500 I-1.2594 J0.9664
G01 Y95.6500
G03 X77.6500 Y97.2375 I-1.5875 J0.0000
G01 X64.8244
G03 X32.6500 Y121.2383 I-32.1619 J-9.5486
G03 X-0.9372 Y87.6843 I-0.0008 J-33.5864
G01 X-1.5878 Y32.6345
G03 X9.2122 Y7.6914 I34.2356 J0.0139
G01 Z-11.0000 F1200
G03 X66.8878 Y32.6345 I23.4377 J24.9581 F6000
G01 X66.3273 Y80.0625
G01 X77.6500
G03 X79.2375 Y81.6500 I0.0000 J1.5875
G01 Y87.6500
G03 X78.9094 Y88.6164 I-1.5875 J0.0000
G01 X58.3476 Y88.5577
G03 X58.0633 Y87.6999 I1.3024 J-0.9077
G02 X7.2884 Y89.2456 I-25.4124 J-0.0491
G02 X58.0028 Y89.3845 I25.3617 J-1.5958
G03 X58.3384 Y88.6458 I1.5651 J0.2655
G01 X78.9094 Y88.6836
G03 X79.2375 Y89.6500 I-1.2594 J0.9664
G01 Y95.6500
G03 X77.6500 Y97.2375 I-1.5875 J0.0000
G01 X64.8244
G03 X32.6500 Y121.2383 I-32.1619 J-9.5486
G03 X-0.9372 Y87.6843 I-0.0008 J-33.5864
G01 X-1.5878 Y32.6345
G03 X9.2122 Y7.6914 I34.2356 J0.0139
G01 Z-12.0000 F1200
G03 X66.8878 Y32.6345 I23.4377 J24.9581 F6000
G01 X66.3273 Y80.0625
G01 X77.6500
G03 X79.2375 Y81.6500 I0.0000 J1.5875
G01 Y87.6500
G03 X78.9094 Y88.6164 I-1.5875 J0.0000
G01 X58.3476 Y88.5577
G03 X58.0633 Y87.6999 I1.3024 J-0.9077
G02 X7.2884 Y89.2456 I-25.4124 J-0.0491
G02 X58.0028 Y89.3845 I25.3617 J-1.5958
G03 X58.3384 Y88.6458 I1.5651 J0.2655
G01 X78.9094 Y88.6836
G03 X79.2375 Y89.6500 I-1.2594 J0.9664
G01 Y95.6500
G03 X77.6500 Y97.2375 I-1.5875 J0.0000
G01 X64.8244
G03 X32.6500 Y121.2383 I-32.1619 J-9.5486
G03 X-0.9372 Y87.6843 I-0.0008 J-33.5864
G01 X-1.5878 Y32.6345
G03 X9.2122 Y7.6914 I34.2356 J0.0139
G01 Z-13.0000 F1200
G03 X66.8878 Y32.6345 I23.4377 J24.9581 F6000
G01 X66.3273 Y80.0625
G01 X77.6500
G03 X79.2375 Y81.6500 I0.0000 J1.5875
G01 Y87.6500
G03 X78.9094 Y88.6164 I-1.5875 J0.0000
G01 X58.3476 Y88.5577
G03 X58.0633 Y87.6999 I1.3024 J-0.9077
G02 X7.2884 Y89.2456 I-25.4124 J-0.0491
G02 X58.0028 Y89.3845 I25.3617 J-1.5958
G03 X58.3384 Y88.6458 I1.5651 J0.2655
G01 X78.9094 Y88.6836
G03 X79.2375 Y89.6500 I-1.2594 J0.9664
G01 Y95.6500
G03 X77.6500 Y97.2375 I-1.5875 J0.0000
G01 X64.8244
G03 X32.6500 Y121.2383 I-32.1619 J-9.5486
G03 X-0.9372 Y87.6843 I-0.0008 J-33.5864
G01 X-1.5878 Y32.6345
G03 X9.2122 Y7.6914 I34.2356 J0.0139
G01 Z-14.0000 F1200
G03 X66.8878 Y32.6345 I23.4377 J24.9581 F6000
G01 X66.3273 Y80.0625
G01 X77.6500
G03 X79.2375 Y81.6500 I0.0000 J1.5875
G01 Y87.6500
G03 X78.9094 Y88.6164 I-1.5875 J0.0000
G01 X58.3476 Y88.5577
G03 X58.0633 Y87.6999 I1.3024 J-0.9077
G02 X7.2884 Y89.2456 I-25.4124 J-0.0491
G02 X58.0028 Y89.3845 I25.3617 J-1.5958
G03 X58.3384 Y88.6458 I1.5651 J0.2655
G01 X78.9094 Y88.6836
G03 X79.2375 Y89.6500 I-1.2594 J0.9664
G01 Y95.6500
G03 X77.6500 Y97.2375 I-1.5875 J0.0000
G01 X64.8244
G03 X32.6500 Y121.2383 I-32.1619 J-9.5486
G03 X-0.9372 Y87.6843 I-0.0008 J-33.5864
G01 X-1.5878 Y32.6345
G03 X9.2122 Y7.6914 I34.2356 J0.0139
G01 Z-15.0000 F1200
G03 X66.8878 Y32.6345 I23.4377 J24.9581 F6000
G01 X66.3273 Y80.0625
G01 X77.6500
G03 X79.2375 Y81.6500 I0.0000 J1.5875
G01 Y87.6500
G03 X78.9094 Y88.6164 I-1.5875 J0.0000
G01 X58.3476 Y88.5577
G03 X58.0633 Y87.6999 I1.3024 J-0.9077
G02 X7.2884 Y89.2456 I-25.4124 J-0.0491
G02 X58.0028 Y89.3845 I25.3617 J-1.5958
G03 X58.3384 Y88.6458 I1.5651 J0.2655
G01 X78.9094 Y88.6836
G03 X79.2375 Y89.6500 I-1.2594 J0.9664
G01 Y95.6500
G03 X77.6500 Y97.2375 I-1.5875 J0.0000
G01 X64.8244
G03 X32.6500 Y121.2383 I-32.1619 J-9.5486
G03 X-0.9372 Y87.6843 I-0.0008 J-33.5864
G01 X-1.5878 Y32.6345
G03 X9.2122 Y7.6914 I34.2356 J0.0139
G01 Z-16.0000 F1200
G03 X66.8878 Y32.6345 I23.4377 J24.9581 F6000
G01 X66.3273 Y80.0625
G01 X77.6500
G03 X79.2375 Y81.6500 I0.0000 J1.5875
G01 Y87.6500
G03 X78.9094 Y88.6164 I-1.5875 J0.0000
G01 X58.3476 Y88.5577
G03 X58.0633 Y87.6999 I1.3024 J-0.9077
G02 X7.2884 Y89.2456 I-25.4124 J-0.0491
G02 X58.0028 Y89.3845 I25.3617 J-1.5958
G03 X58.3384 Y88.6458 I1.5651 J0.2655
G01 X78.9094 Y88.6836
G03 X79.2375 Y89.6500 I-1.2594 J0.9664
G01 Y95.6500
G03 X77.6500 Y97.2375 I-1.5875 J0.0000
G01 X64.8244
G03 X32.6500 Y121.2383 I-32.1619 J-9.5486
G03 X-0.9372 Y87.6843 I-0.0008 J-33.5864
G01 X-1.5878 Y32.6345
G03 X9.2122 Y7.6914 I34.2356 J0.0139
G01 Z-17.0000 F1200
G03 X66.8878 Y32.6345 I23.4377 J24.9581 F6000
G01 X66.3273 Y80.0625
G01 X77.6500
G03 X79.2375 Y81.6500 I0.0000 J1.5875
G01 Y87.6500
G03 X78.9094 Y88.6164 I-1.5875 J0.0000
G01 X58.3476 Y88.5577
G03 X58.0633 Y87.6999 I1.3024 J-0.9077
G02 X7.2884 Y89.2456 I-25.4124 J-0.0491
G02 X58.0028 Y89.3845 I25.3617 J-1.5958
G03 X58.3384 Y88.6458 I1.5651 J0.2655
G01 X78.9094 Y88.6836
G03 X79.2375 Y89.6500 I-1.2594 J0.9664
G01 Y95.6500
G03 X77.6500 Y97.2375 I-1.5875 J0.0000
G01 X64.8244
G03 X32.6500 Y121.2383 I-32.1619 J-9.5486
G03 X-0.9372 Y87.6843 I-0.0008 J-33.5864
G01 X-1.5878 Y32.6345
G03 X9.2122 Y7.6914 I34.2356 J0.0139
G01 Z-18.0000 F1200
G03 X66.8878 Y32.6345 I23.4377 J24.9581 F6000
G01 X66.3273 Y80.0625
G01 X77.6500
G03 X79.2375 Y81.6500 I0.0000 J1.5875
G01 Y87.6500
G03 X78.9094 Y88.6164 I-1.5875 J0.0000
G01 X58.3476 Y88.5577
G03 X58.0633 Y87.6999 I1.3024 J-0.9077
G02 X7.2884 Y89.2456 I-25.4124 J-0.0491
G02 X58.0028 Y89.3845 I25.3617 J-1.5958
G03 X58.3384 Y88.6458 I1.5651 J0.2655
G01 X78.9094 Y88.6836
G03 X79.2375 Y89.6500 I-1.2594 J0.9664
G01 Y95.6500
G03 X77.6500 Y97.2375 I-1.5875 J0.0000
G01 X64.8244
G03 X32.6500 Y121.2383 I-32.1619 J-9.5486
G03 X-0.9372 Y87.6843 I-0.0008 J-33.5864
G01 X-1.5878 Y32.6345
G03 X9.2122 Y7.6914 I34.2356 J0.0139
G01 Z-19.0000 F1200
G03 X66.8878 Y32.6345 I23.4377 J24.9581 F6000
G01 X66.3273 Y80.0625
G01 X77.6500
G03 X79.2375 Y81.6500 I0.0000 J1.5875
G01 Y87.6500
G03 X78.9094 Y88.6164 I-1.5875 J0.0000
G01 X58.3476 Y88.5577
G03 X58.0633 Y87.6999 I1.3024 J-0.9077
G02 X7.2884 Y89.2456 I-25.4124 J-0.0491
G02 X58.0028 Y89.3845 I25.3617 J-1.5958
G03 X58.3384 Y88.6458 I1.5651 J0.2655
G01 X78.9094 Y88.6836
G03 X79.2375 Y89.6500 I-1.2594 J0.9664
G01 Y95.6500
G03 X77.6500 Y97.2375 I-1.5875 J0.0000
G01 X64.8244
G03 X32.6500 Y121.2383 I-32.1619 J-9.5486
G03 X-0.9372 Y87.6843 I-0.0008 J-33.5864
G01 X-1.5878 Y32.6345
G03 X9.2122 Y7.6914 I34.2356 J0.0139
G01 Z-19.4000 F1200
G03 X66.8878 Y32.6345 I23.4377 J24.9581 F6000
G01 X66.3273 Y80.0625
G01 X77.6500
G03 X79.2375 Y81.6500 I0.0000 J1.5875
G01 Y87.6500
G03 X78.9094 Y88.6164 I-1.5875 J0.0000
G01 X58.3476 Y88.5577
G03 X58.0633 Y87.6999 I1.3024 J-0.9077
G02 X7.2884 Y89.2456 I-25.4124 J-0.0491
G02 X58.0028 Y89.3845 I25.3617 J-1.5958
G03 X58.3384 Y88.6458 I1.5651 J0.2655
G01 X78.9094 Y88.6836
G03 X79.2375 Y89.6500 I-1.2594 J0.9664
G01 Y95.6500
G03 X77.6500 Y97.2375 I-1.5875 J0.0000
G01 X64.8244
G03 X32.6500 Y121.2383 I-32.1619 J-9.5486
G03 X-0.9372 Y87.6843 I-0.0008 J-33.5864
G01 X-1.5878 Y32.6345
G03 X9.2122 Y7.6914 I34.2356 J0.0139
G00 Z5.0000
G00 X0.0000 Y0.0000

M05
M30
