(Project quickshoeflat10mm)
(Created by Estlcam version 11 build 11.235)
(Machining time about 00:02:03 hours)

(Required tools:)
(Endmil 3.175)
G21
G90
G94
M03 S18000
G00 Z5.0000


(No. 1: Hole 2)
G00 X3.5559 Y27.6500
G00 Z0.5000
G01 Z0.0000 F1200 S18000
G01 Z-1.0000
G01 X7.7441 F6000
G01 X8.0594 Y27.7224
G02 X3.2431 Y27.4984 I-2.4100 J-0.0730
G02 X8.0594 Y27.7224 I2.4063 J0.1522
G01 X7.7441 Y27.6500
G01 Z-2.0000 F1200
G01 X3.5559 F6000
G01 X3.2406 Y27.5776
G02 X8.0569 Y27.8016 I2.4100 J0.0730
G02 X3.2406 Y27.5776 I-2.4063 J-0.1522
G01 X3.5559 Y27.6500
G01 Z-3.0000 F1200
G01 X7.7441 F6000
G01 X8.0594 Y27.7224
G02 X3.2431 Y27.4984 I-2.4100 J-0.0730
G02 X8.0594 Y27.7224 I2.4063 J0.1522
G01 X7.7441 Y27.6500
G01 Z-4.0000 F1200
G01 X3.5559 F6000
G01 X3.2406 Y27.5776
G02 X8.0569 Y27.8016 I2.4100 J0.0730
G02 X3.2406 Y27.5776 I-2.4063 J-0.1522
G01 X3.5559 Y27.6500
G01 Z-5.0000 F1200
G01 X7.7441 F6000
G01 X8.0594 Y27.7224
G02 X3.2431 Y27.4984 I-2.4100 J-0.0730
G02 X8.0594 Y27.7224 I2.4063 J0.1522
G01 X7.7441 Y27.6500
G01 Z-6.0000 F1200
G01 X3.5559 F6000
G01 X3.2406 Y27.5776
G02 X8.0569 Y27.8016 I2.4100 J0.0730
G02 X3.2406 Y27.5776 I-2.4063 J-0.1522
G01 X3.5559 Y27.6500
G01 Z-7.0000 F1200
G01 X7.7441 F6000
G01 X8.0594 Y27.7224
G02 X3.2431 Y27.4984 I-2.4100 J-0.0730
G02 X8.0594 Y27.7224 I2.4063 J0.1522
G01 X7.7441 Y27.6500
G01 Z-8.0000 F1200
G01 X3.5559 F6000
G01 X3.2406 Y27.5776
G02 X8.0569 Y27.8016 I2.4100 J0.0730
G02 X3.2406 Y27.5776 I-2.4063 J-0.1522
G01 X3.5559 Y27.6500
G01 Z-9.0000 F1200
G01 X7.7441 F6000
G01 X8.0594 Y27.7224
G02 X3.2431 Y27.4984 I-2.4100 J-0.0730
G02 X8.0594 Y27.7224 I2.4063 J0.1522
G01 X7.7441 Y27.6500
G01 Z-10.0000 F1200
G01 X3.5559 F6000
G01 X3.2406 Y27.5776
G02 X8.0569 Y27.8016 I2.4100 J0.0730
G02 X3.2406 Y27.5776 I-2.4063 J-0.1522
G01 X3.5559 Y27.6500
G00 Z5.0000


(No. 2: Hole 1)
G00 X19.6159 Y66.2188 Z5.0000
G00 Z0.5000
G01 Z0.0000 F1200
G01 Z-1.0000
G01 X45.6841 F6000
G01 X48.9692 Y68.6000
G01 X16.3308
G01 X13.9082 Y70.9813
G01 X51.3918
G01 X53.2658 Y73.3625
G01 X12.0342
G01 X10.5667 Y75.7438
G01 X54.7333
G01 X55.8576 Y78.1250
G01 X9.4424
G01 X8.6067 Y80.5063
G01 X56.6933
G01 X57.2861 Y82.8875
G01 X8.0139
G01 X7.6816 Y85.2688
G01 X57.6184
G01 X57.7441 Y87.6500
G01 X7.5559
G01 X7.6816 Y90.0312
G01 X57.6184
G01 X57.2861 Y92.4125
G01 X8.0139
G01 X8.6067 Y94.7937
G01 X56.6933
G01 X55.8576 Y97.1750
G01 X9.4424
G01 X10.5667 Y99.5562
G01 X54.7333
G01 X53.2658 Y101.9375
G01 X12.0342
G01 X13.9082 Y104.3188
G01 X51.3918
G01 X48.9692 Y106.7000
G01 X16.3308
G01 X19.6159 Y109.0813
G01 X45.6841
G01 X40.5527 Y111.4625
G01 X24.7473
G00 Z5.0000
G00 Y66.2188
G00 Z0.5000
G01 Z-1.0000 F1200
G01 Y63.8375 F6000
G01 X40.5527
G01 X40.7985 Y63.5885
G02 X23.2953 Y111.2773 I-8.1535 J24.0639
G02 X40.7985 Y63.5885 I9.3570 J-23.6221
G01 X40.5527 Y63.8375
G01 Z-2.0000 F1200
G01 X24.7473 F6000
G01 X19.6159 Y66.2188
G01 X45.6841
G01 X48.9692 Y68.6000
G01 X16.3308
G01 X13.9082 Y70.9813
G01 X51.3918
G01 X53.2658 Y73.3625
G01 X12.0342
G01 X10.5667 Y75.7438
G01 X54.7333
G01 X55.8576 Y78.1250
G01 X9.4424
G01 X8.6067 Y80.5063
G01 X56.6933
G01 X57.2861 Y82.8875
G01 X8.0139
G01 X7.6816 Y85.2688
G01 X57.6184
G01 X57.7441 Y87.6500
G01 X7.5559
G01 X7.6816 Y90.0312
G01 X57.6184
G01 X57.2861 Y92.4125
G01 X8.0139
G01 X8.6067 Y94.7937
G01 X56.6933
G01 X55.8576 Y97.1750
G01 X9.4424
G01 X10.5667 Y99.5562
G01 X54.7333
G01 X53.2658 Y101.9375
G01 X12.0342
G01 X13.9082 Y104.3188
G01 X51.3918
G01 X48.9692 Y106.7000
G01 X16.3308
G01 X19.6159 Y109.0813
G01 X45.6841
G01 X40.5527 Y111.4625
G01 X24.7473
G01 X24.5015 Y111.7115
G02 X42.0047 Y64.0227 I8.1535 J-24.0639
G02 X24.5015 Y111.7115 I-9.3570 J23.6221
G01 X24.7473 Y111.4625
G01 Z-3.0000 F1200
G01 X40.5527 F6000
G01 X45.6841 Y109.0813
G01 X19.6159
G01 X16.3308 Y106.7000
G01 X48.9692
G01 X51.3918 Y104.3188
G01 X13.9082
G01 X12.0342 Y101.9375
G01 X53.2658
G01 X54.7333 Y99.5562
G01 X10.5667
G01 X9.4424 Y97.1750
G01 X55.8576
G01 X56.6933 Y94.7937
G01 X8.6067
G01 X8.0139 Y92.4125
G01 X57.2861
G01 X57.6184 Y90.0312
G01 X7.6816
G01 X7.5559 Y87.6500
G01 X57.7441
G01 X57.6184 Y85.2688
G01 X7.6816
G01 X8.0139 Y82.8875
G01 X57.2861
G01 X56.6933 Y80.5063
G01 X8.6067
G01 X9.4424 Y78.1250
G01 X55.8576
G01 X54.7333 Y75.7438
G01 X10.5667
G01 X12.0342 Y73.3625
G01 X53.2658
G01 X51.3918 Y70.9813
G01 X13.9082
G01 X16.3308 Y68.6000
G01 X48.9692
G01 X45.6841 Y66.2188
G01 X19.6159
G01 X24.7473 Y63.8375
G01 X40.5527
G01 X40.7985 Y63.5885
G02 X23.2953 Y111.2773 I-8.1535 J24.0639
G02 X40.7985 Y63.5885 I9.3570 J-23.6221
G01 X40.5527 Y63.8375
G01 Z-4.0000 F1200
G01 X24.7473 F6000
G01 X19.6159 Y66.2188
G01 X45.6841
G01 X48.9692 Y68.6000
G01 X16.3308
G01 X13.9082 Y70.9813
G01 X51.3918
G01 X53.2658 Y73.3625
G01 X12.0342
G01 X10.5667 Y75.7438
G01 X54.7333
G01 X55.8576 Y78.1250
G01 X9.4424
G01 X8.6067 Y80.5063
G01 X56.6933
G01 X57.2861 Y82.8875
G01 X8.0139
G01 X7.6816 Y85.2688
G01 X57.6184
G01 X57.7441 Y87.6500
G01 X7.5559
G01 X7.6816 Y90.0312
G01 X57.6184
G01 X57.2861 Y92.4125
G01 X8.0139
G01 X8.6067 Y94.7937
G01 X56.6933
G01 X55.8576 Y97.1750
G01 X9.4424
G01 X10.5667 Y99.5562
G01 X54.7333
G01 X53.2658 Y101.9375
G01 X12.0342
G01 X13.9082 Y104.3188
G01 X51.3918
G01 X48.9692 Y106.7000
G01 X16.3308
G01 X19.6159 Y109.0813
G01 X45.6841
G01 X40.5527 Y111.4625
G01 X24.7473
G01 X24.5015 Y111.7115
G02 X42.0047 Y64.0227 I8.1535 J-24.0639
G02 X24.5015 Y111.7115 I-9.3570 J23.6221
G01 X24.7473 Y111.4625
G01 Z-5.0000 F1200
G01 X40.5527 F6000
G01 X45.6841 Y109.0813
G01 X19.6159
G01 X16.3308 Y106.7000
G01 X48.9692
G01 X51.3918 Y104.3188
G01 X13.9082
G01 X12.0342 Y101.9375
G01 X53.2658
G01 X54.7333 Y99.5562
G01 X10.5667
G01 X9.4424 Y97.1750
G01 X55.8576
G01 X56.6933 Y94.7937
G01 X8.6067
G01 X8.0139 Y92.4125
G01 X57.2861
G01 X57.6184 Y90.0312
G01 X7.6816
G01 X7.5559 Y87.6500
G01 X57.7441
G01 X57.6184 Y85.2688
G01 X7.6816
G01 X8.0139 Y82.8875
G01 X57.2861
G01 X56.6933 Y80.5063
G01 X8.6067
G01 X9.4424 Y78.1250
G01 X55.8576
G01 X54.7333 Y75.7438
G01 X10.5667
G01 X12.0342 Y73.3625
G01 X53.2658
G01 X51.3918 Y70.9813
G01 X13.9082
G01 X16.3308 Y68.6000
G01 X48.9692
G01 X45.6841 Y66.2188
G01 X19.6159
G01 X24.7473 Y63.8375
G01 X40.5527
G01 X40.7985 Y63.5885
G02 X23.2953 Y111.2773 I-8.1535 J24.0639
G02 X40.7985 Y63.5885 I9.3570 J-23.6221
G01 X40.5527 Y63.8375
G01 Z-6.0000 F1200
G01 X24.7473 F6000
G01 X19.6159 Y66.2188
G01 X45.6841
G01 X48.9692 Y68.6000
G01 X16.3308
G01 X13.9082 Y70.9813
G01 X51.3918
G01 X53.2658 Y73.3625
G01 X12.0342
G01 X10.5667 Y75.7438
G01 X54.7333
G01 X55.8576 Y78.1250
G01 X9.4424
G01 X8.6067 Y80.5063
G01 X56.6933
G01 X57.2861 Y82.8875
G01 X8.0139
G01 X7.6816 Y85.2688
G01 X57.6184
G01 X57.7441 Y87.6500
G01 X7.5559
G01 X7.6816 Y90.0312
G01 X57.6184
G01 X57.2861 Y92.4125
G01 X8.0139
G01 X8.6067 Y94.7937
G01 X56.6933
G01 X55.8576 Y97.1750
G01 X9.4424
G01 X10.5667 Y99.5562
G01 X54.7333
G01 X53.2658 Y101.9375
G01 X12.0342
G01 X13.9082 Y104.3188
G01 X51.3918
G01 X48.9692 Y106.7000
G01 X16.3308
G01 X19.6159 Y109.0813
G01 X45.6841
G01 X40.5527 Y111.4625
G01 X24.7473
G01 X24.5015 Y111.7115
G02 X42.0047 Y64.0227 I8.1535 J-24.0639
G02 X24.5015 Y111.7115 I-9.3570 J23.6221
G01 X24.7473 Y111.4625
G01 Z-7.0000 F1200
G01 X40.5527 F6000
G01 X45.6841 Y109.0813
G01 X19.6159
G01 X16.3308 Y106.7000
G01 X48.9692
G01 X51.3918 Y104.3188
G01 X13.9082
G01 X12.0342 Y101.9375
G01 X53.2658
G01 X54.7333 Y99.5562
G01 X10.5667
G01 X9.4424 Y97.1750
G01 X55.8576
G01 X56.6933 Y94.7937
G01 X8.6067
G01 X8.0139 Y92.4125
G01 X57.2861
G01 X57.6184 Y90.0312
G01 X7.6816
G01 X7.5559 Y87.6500
G01 X57.7441
G01 X57.6184 Y85.2688
G01 X7.6816
G01 X8.0139 Y82.8875
G01 X57.2861
G01 X56.6933 Y80.5063
G01 X8.6067
G01 X9.4424 Y78.1250
G01 X55.8576
G01 X54.7333 Y75.7438
G01 X10.5667
G01 X12.0342 Y73.3625
G01 X53.2658
G01 X51.3918 Y70.9813
G01 X13.9082
G01 X16.3308 Y68.6000
G01 X48.9692
G01 X45.6841 Y66.2188
G01 X19.6159
G01 X24.7473 Y63.8375
G01 X40.5527
G01 X40.7985 Y63.5885
G02 X23.2953 Y111.2773 I-8.1535 J24.0639
G02 X40.7985 Y63.5885 I9.3570 J-23.6221
G01 X40.5527 Y63.8375
G01 Z-8.0000 F1200
G01 X24.7473 F6000
G01 X19.6159 Y66.2188
G01 X45.6841
G01 X48.9692 Y68.6000
G01 X16.3308
G01 X13.9082 Y70.9813
G01 X51.3918
G01 X53.2658 Y73.3625
G01 X12.0342
G01 X10.5667 Y75.7438
G01 X54.7333
G01 X55.8576 Y78.1250
G01 X9.4424
G01 X8.6067 Y80.5063
G01 X56.6933
G01 X57.2861 Y82.8875
G01 X8.0139
G01 X7.6816 Y85.2688
G01 X57.6184
G01 X57.7441 Y87.6500
G01 X7.5559
G01 X7.6816 Y90.0312
G01 X57.6184
G01 X57.2861 Y92.4125
G01 X8.0139
G01 X8.6067 Y94.7937
G01 X56.6933
G01 X55.8576 Y97.1750
G01 X9.4424
G01 X10.5667 Y99.5562
G01 X54.7333
G01 X53.2658 Y101.9375
G01 X12.0342
G01 X13.9082 Y104.3188
G01 X51.3918
G01 X48.9692 Y106.7000
G01 X16.3308
G01 X19.6159 Y109.0813
G01 X45.6841
G01 X40.5527 Y111.4625
G01 X24.7473
G01 X24.5015 Y111.7115
G02 X42.0047 Y64.0227 I8.1535 J-24.0639
G02 X24.5015 Y111.7115 I-9.3570 J23.6221
G01 X24.7473 Y111.4625
G01 Z-9.0000 F1200
G01 X40.5527 F6000
G01 X45.6841 Y109.0813
G01 X19.6159
G01 X16.3308 Y106.7000
G01 X48.9692
G01 X51.3918 Y104.3188
G01 X13.9082
G01 X12.0342 Y101.9375
G01 X53.2658
G01 X54.7333 Y99.5562
G01 X10.5667
G01 X9.4424 Y97.1750
G01 X55.8576
G01 X56.6933 Y94.7937
G01 X8.6067
G01 X8.0139 Y92.4125
G01 X57.2861
G01 X57.6184 Y90.0312
G01 X7.6816
G01 X7.5559 Y87.6500
G01 X57.7441
G01 X57.6184 Y85.2688
G01 X7.6816
G01 X8.0139 Y82.8875
G01 X57.2861
G01 X56.6933 Y80.5063
G01 X8.6067
G01 X9.4424 Y78.1250
G01 X55.8576
G01 X54.7333 Y75.7438
G01 X10.5667
G01 X12.0342 Y73.3625
G01 X53.2658
G01 X51.3918 Y70.9813
G01 X13.9082
G01 X16.3308 Y68.6000
G01 X48.9692
G01 X45.6841 Y66.2188
G01 X19.6159
G01 X24.7473 Y63.8375
G01 X40.5527
G01 X40.7985 Y63.5885
G02 X23.2953 Y111.2773 I-8.1535 J24.0639
G02 X40.7985 Y63.5885 I9.3570 J-23.6221
G01 X40.5527 Y63.8375
G01 Z-10.0000 F1200
G01 X24.7473 F6000
G01 X19.6159 Y66.2188
G01 X45.6841
G01 X48.9692 Y68.6000
G01 X16.3308
G01 X13.9082 Y70.9813
G01 X51.3918
G01 X53.2658 Y73.3625
G01 X12.0342
G01 X10.5667 Y75.7438
G01 X54.7333
G01 X55.8576 Y78.1250
G01 X9.4424
G01 X8.6067 Y80.5063
G01 X56.6933
G01 X57.2861 Y82.8875
G01 X8.0139
G01 X7.6816 Y85.2688
G01 X57.6184
G01 X57.7441 Y87.6500
G01 X7.5559
G01 X7.6816 Y90.0312
G01 X57.6184
G01 X57.2861 Y92.4125
G01 X8.0139
G01 X8.6067 Y94.7937
G01 X56.6933
G01 X55.8576 Y97.1750
G01 X9.4424
G01 X10.5667 Y99.5562
G01 X54.7333
G01 X53.2658 Y101.9375
G01 X12.0342
G01 X13.9082 Y104.3188
G01 X51.3918
G01 X48.9692 Y106.7000
G01 X16.3308
G01 X19.6159 Y109.0813
G01 X45.6841
G01 X40.5527 Y111.4625
G01 X24.7473
G01 X24.5015 Y111.7115
G02 X42.0047 Y64.0227 I8.1535 J-24.0639
G02 X24.5015 Y111.7115 I-9.3570 J23.6221
G01 X24.7473 Y111.4625
G00 Z5.0000


(No. 3: Hole 3)
G00 X57.5559 Y27.6500 Z5.0000
G00 Z0.5000
G01 Z0.0000 F1200
G01 Z-1.0000
G01 X61.7441 F6000
G01 X62.0594 Y27.7224
G02 X57.2431 Y27.4984 I-2.4100 J-0.0730
G02 X62.0594 Y27.7224 I2.4063 J0.1522
G01 X61.7441 Y27.6500
G01 Z-2.0000 F1200
G01 X57.5559 F6000
G01 X57.2406 Y27.5776
G02 X62.0569 Y27.8016 I2.4100 J0.0730
G02 X57.2406 Y27.5776 I-2.4063 J-0.1522
G01 X57.5559 Y27.6500
G01 Z-3.0000 F1200
G01 X61.7441 F6000
G01 X62.0594 Y27.7224
G02 X57.2431 Y27.4984 I-2.4100 J-0.0730
G02 X62.0594 Y27.7224 I2.4063 J0.1522
G01 X61.7441 Y27.6500
G01 Z-4.0000 F1200
G01 X57.5559 F6000
G01 X57.2406 Y27.5776
G02 X62.0569 Y27.8016 I2.4100 J0.0730
G02 X57.2406 Y27.5776 I-2.4063 J-0.1522
G01 X57.5559 Y27.6500
G01 Z-5.0000 F1200
G01 X61.7441 F6000
G01 X62.0594 Y27.7224
G02 X57.2431 Y27.4984 I-2.4100 J-0.0730
G02 X62.0594 Y27.7224 I2.4063 J0.1522
G01 X61.7441 Y27.6500
G01 Z-6.0000 F1200
G01 X57.5559 F6000
G01 X57.2406 Y27.5776
G02 X62.0569 Y27.8016 I2.4100 J0.0730
G02 X57.2406 Y27.5776 I-2.4063 J-0.1522
G01 X57.5559 Y27.6500
G01 Z-7.0000 F1200
G01 X61.7441 F6000
G01 X62.0594 Y27.7224
G02 X57.2431 Y27.4984 I-2.4100 J-0.0730
G02 X62.0594 Y27.7224 I2.4063 J0.1522
G01 X61.7441 Y27.6500
G01 Z-8.0000 F1200
G01 X57.5559 F6000
G01 X57.2406 Y27.5776
G02 X62.0569 Y27.8016 I2.4100 J0.0730
G02 X57.2406 Y27.5776 I-2.4063 J-0.1522
G01 X57.5559 Y27.6500
G01 Z-9.0000 F1200
G01 X61.7441 F6000
G01 X62.0594 Y27.7224
G02 X57.2431 Y27.4984 I-2.4100 J-0.0730
G02 X62.0594 Y27.7224 I2.4063 J0.1522
G01 X61.7441 Y27.6500
G01 Z-10.0000 F1200
G01 X57.5559 F6000
G01 X57.2406 Y27.5776
G02 X62.0569 Y27.8016 I2.4100 J0.0730
G02 X57.2406 Y27.5776 I-2.4063 J-0.1522
G01 X57.5559 Y27.6500
G00 Z5.0000
G00 X0.0000 Y0.0000

M05
M30
