(Project quickshoeflatbottom)
(Created by Estlcam version 11 build 11.235)
(Machining time about 00:02:00 hours)

(Required tools:)
(Endmil 3.175)
G21
G90
G94
M03 S18000
G00 Z5.0000


(No. 1: Hole 6)
G00 X19.2247 Y16.4217
G00 Z0.5000
G01 Z0.0000 F1200 S18000
G01 Z-1.0000
G02 X25.3086 Y52.3908 I13.4253 J16.2283 F6000
G02 X53.4167 Y29.1375 I7.3414 J-19.7408
G02 X19.2247 Y16.4217 I-20.7667 J3.5125
G01 Z-2.0000 F1200
G02 X25.3086 Y52.3908 I13.4253 J16.2283 F6000
G02 X53.4167 Y29.1375 I7.3414 J-19.7408
G02 X19.2247 Y16.4217 I-20.7667 J3.5125
G01 Z-3.0000 F1200
G02 X25.3086 Y52.3908 I13.4253 J16.2283 F6000
G02 X53.4167 Y29.1375 I7.3414 J-19.7408
G02 X19.2247 Y16.4217 I-20.7667 J3.5125
G01 Z-4.0000 F1200
G02 X25.3086 Y52.3908 I13.4253 J16.2283 F6000
G02 X53.4167 Y29.1375 I7.3414 J-19.7408
G02 X19.2247 Y16.4217 I-20.7667 J3.5125
G01 Z-5.0000 F1200
G02 X25.3086 Y52.3908 I13.4253 J16.2283 F6000
G02 X53.4167 Y29.1375 I7.3414 J-19.7408
G02 X19.2247 Y16.4217 I-20.7667 J3.5125
G01 Z-6.0000 F1200
G02 X25.3086 Y52.3908 I13.4253 J16.2283 F6000
G02 X53.4167 Y29.1375 I7.3414 J-19.7408
G02 X19.2247 Y16.4217 I-20.7667 J3.5125
G01 Z-7.0000 F1200
G02 X25.3086 Y52.3908 I13.4253 J16.2283 F6000
G02 X53.4167 Y29.1375 I7.3414 J-19.7408
G02 X19.2247 Y16.4217 I-20.7667 J3.5125
G01 Z-8.0000 F1200
G02 X25.3086 Y52.3908 I13.4253 J16.2283 F6000
G02 X53.4167 Y29.1375 I7.3414 J-19.7408
G02 X19.2247 Y16.4217 I-20.7667 J3.5125
G01 Z-9.0000 F1200
G02 X25.3086 Y52.3908 I13.4253 J16.2283 F6000
G02 X53.4167 Y29.1375 I7.3414 J-19.7408
G02 X19.2247 Y16.4217 I-20.7667 J3.5125
G01 Z-10.0000 F1200
G02 X25.3086 Y52.3908 I13.4253 J16.2283 F6000
G02 X53.4167 Y29.1375 I7.3414 J-19.7408
G02 X19.2247 Y16.4217 I-20.7667 J3.5125
G01 Z-11.0000 F1200
G02 X25.3086 Y52.3908 I13.4253 J16.2283 F6000
G02 X53.4167 Y29.1375 I7.3414 J-19.7408
G02 X19.2247 Y16.4217 I-20.7667 J3.5125
G01 Z-12.0000 F1200
G02 X25.3086 Y52.3908 I13.4253 J16.2283 F6000
G02 X53.4167 Y29.1375 I7.3414 J-19.7408
G02 X19.2247 Y16.4217 I-20.7667 J3.5125
G01 Z-13.0000 F1200
G02 X25.3086 Y52.3908 I13.4253 J16.2283 F6000
G02 X53.4167 Y29.1375 I7.3414 J-19.7408
G02 X19.2247 Y16.4217 I-20.7667 J3.5125
G01 Z-14.0000 F1200
G02 X25.3086 Y52.3908 I13.4253 J16.2283 F6000
G02 X53.4167 Y29.1375 I7.3414 J-19.7408
G02 X19.2247 Y16.4217 I-20.7667 J3.5125
G01 Z-15.0000 F1200
G02 X25.3086 Y52.3908 I13.4253 J16.2283 F6000
G02 X53.4167 Y29.1375 I7.3414 J-19.7408
G02 X19.2247 Y16.4217 I-20.7667 J3.5125
G01 Z-16.0000 F1200
G02 X25.3086 Y52.3908 I13.4253 J16.2283 F6000
G02 X53.4167 Y29.1375 I7.3414 J-19.7408
G02 X19.2247 Y16.4217 I-20.7667 J3.5125
G01 Z-17.0000 F1200
G02 X25.3086 Y52.3908 I13.4253 J16.2283 F6000
G02 X53.4167 Y29.1375 I7.3414 J-19.7408
G02 X19.2247 Y16.4217 I-20.7667 J3.5125
G01 Z-18.0000 F1200
G02 X25.3086 Y52.3908 I13.4253 J16.2283 F6000
G02 X53.4167 Y29.1375 I7.3414 J-19.7408
G02 X19.2247 Y16.4217 I-20.7667 J3.5125
G01 Z-19.0000 F1200
G02 X25.3086 Y52.3908 I13.4253 J16.2283 F6000
G02 X53.4167 Y29.1375 I7.3414 J-19.7408
G02 X19.2247 Y16.4217 I-20.7667 J3.5125
G01 Z-19.4000 F1200
G02 X25.3086 Y52.3908 I13.4253 J16.2283 F6000
G02 X53.4167 Y29.1375 I7.3414 J-19.7408
G02 X19.2247 Y16.4217 I-20.7667 J3.5125
G00 Z5.0000


(No. 2: Hole 3)
G00 X5.5045 Y26.4974 Z5.0000
G00 Z0.5000
G01 Z0.0000 F1200
G01 Z-1.0000
G02 X4.7246 Y28.3523 I0.1455 J1.1526 F6000
G02 X6.7209 Y28.1002 I0.9254 J-0.7023
G02 X5.5045 Y26.4974 I-1.0709 J-0.4502
G01 Z-2.0000 F1200
G02 X4.7246 Y28.3523 I0.1455 J1.1526 F6000
G02 X6.7209 Y28.1002 I0.9254 J-0.7023
G02 X5.5045 Y26.4974 I-1.0709 J-0.4502
G01 Z-3.0000 F1200
G02 X4.7246 Y28.3523 I0.1455 J1.1526 F6000
G02 X6.7209 Y28.1002 I0.9254 J-0.7023
G02 X5.5045 Y26.4974 I-1.0709 J-0.4502
G01 Z-4.0000 F1200
G02 X4.7246 Y28.3523 I0.1455 J1.1526 F6000
G02 X6.7209 Y28.1002 I0.9254 J-0.7023
G02 X5.5045 Y26.4974 I-1.0709 J-0.4502
G01 Z-5.0000 F1200
G02 X4.7246 Y28.3523 I0.1455 J1.1526 F6000
G02 X6.7209 Y28.1002 I0.9254 J-0.7023
G02 X5.5045 Y26.4974 I-1.0709 J-0.4502
G01 Z-6.0000 F1200
G02 X4.7246 Y28.3523 I0.1455 J1.1526 F6000
G02 X6.7209 Y28.1002 I0.9254 J-0.7023
G02 X5.5045 Y26.4974 I-1.0709 J-0.4502
G01 Z-7.0000 F1200
G02 X4.7246 Y28.3523 I0.1455 J1.1526 F6000
G02 X6.7209 Y28.1002 I0.9254 J-0.7023
G02 X5.5045 Y26.4974 I-1.0709 J-0.4502
G01 Z-8.0000 F1200
G02 X4.7246 Y28.3523 I0.1455 J1.1526 F6000
G02 X6.7209 Y28.1002 I0.9254 J-0.7023
G02 X5.5045 Y26.4974 I-1.0709 J-0.4502
G01 Z-9.0000 F1200
G02 X4.7246 Y28.3523 I0.1455 J1.1526 F6000
G02 X6.7209 Y28.1002 I0.9254 J-0.7023
G02 X5.5045 Y26.4974 I-1.0709 J-0.4502
G01 Z-10.0000 F1200
G02 X4.7246 Y28.3523 I0.1455 J1.1526 F6000
G02 X6.7209 Y28.1002 I0.9254 J-0.7023
G02 X5.5045 Y26.4974 I-1.0709 J-0.4502
G01 Z-11.0000 F1200
G02 X4.7246 Y28.3523 I0.1455 J1.1526 F6000
G02 X6.7209 Y28.1002 I0.9254 J-0.7023
G02 X5.5045 Y26.4974 I-1.0709 J-0.4502
G01 Z-12.0000 F1200
G02 X4.7246 Y28.3523 I0.1455 J1.1526 F6000
G02 X6.7209 Y28.1002 I0.9254 J-0.7023
G02 X5.5045 Y26.4974 I-1.0709 J-0.4502
G01 Z-13.0000 F1200
G02 X4.7246 Y28.3523 I0.1455 J1.1526 F6000
G02 X6.7209 Y28.1002 I0.9254 J-0.7023
G02 X5.5045 Y26.4974 I-1.0709 J-0.4502
G01 Z-14.0000 F1200
G02 X4.7246 Y28.3523 I0.1455 J1.1526 F6000
G02 X6.7209 Y28.1002 I0.9254 J-0.7023
G02 X5.5045 Y26.4974 I-1.0709 J-0.4502
G01 Z-15.0000 F1200
G02 X4.7246 Y28.3523 I0.1455 J1.1526 F6000
G02 X6.7209 Y28.1002 I0.9254 J-0.7023
G02 X5.5045 Y26.4974 I-1.0709 J-0.4502
G01 Z-16.0000 F1200
G02 X4.7246 Y28.3523 I0.1455 J1.1526 F6000
G02 X6.7209 Y28.1002 I0.9254 J-0.7023
G02 X5.5045 Y26.4974 I-1.0709 J-0.4502
G01 Z-17.0000 F1200
G02 X4.7246 Y28.3523 I0.1455 J1.1526 F6000
G02 X6.7209 Y28.1002 I0.9254 J-0.7023
G02 X5.5045 Y26.4974 I-1.0709 J-0.4502
G01 Z-18.0000 F1200
G02 X4.7246 Y28.3523 I0.1455 J1.1526 F6000
G02 X6.7209 Y28.1002 I0.9254 J-0.7023
G02 X5.5045 Y26.4974 I-1.0709 J-0.4502
G01 Z-19.0000 F1200
G02 X4.7246 Y28.3523 I0.1455 J1.1526 F6000
G02 X6.7209 Y28.1002 I0.9254 J-0.7023
G02 X5.5045 Y26.4974 I-1.0709 J-0.4502
G01 Z-19.4000 F1200
G02 X4.7246 Y28.3523 I0.1455 J1.1526 F6000
G02 X6.7209 Y28.1002 I0.9254 J-0.7023
G02 X5.5045 Y26.4974 I-1.0709 J-0.4502
G00 Z5.0000


(No. 3: Hole 2)
G00 X32.2776 Y63.7094 Z5.0000
G00 Z0.5000
G01 Z0.0000 F1200
G01 Z-1.0000
G02 X32.0216 Y65.4429 I0.3725 J0.9406 F6000
G02 X33.6509 Y64.7978 I0.6284 J-0.7929
G02 X32.2776 Y63.7094 I-1.0009 J-0.1478
G01 Z-2.0000 F1200
G02 X32.0216 Y65.4429 I0.3725 J0.9406 F6000
G02 X33.6509 Y64.7978 I0.6284 J-0.7929
G02 X32.2776 Y63.7094 I-1.0009 J-0.1478
G01 Z-3.0000 F1200
G02 X32.0216 Y65.4429 I0.3725 J0.9406 F6000
G02 X33.6509 Y64.7978 I0.6284 J-0.7929
G02 X32.2776 Y63.7094 I-1.0009 J-0.1478
G01 Z-4.0000 F1200
G02 X32.0216 Y65.4429 I0.3725 J0.9406 F6000
G02 X33.6509 Y64.7978 I0.6284 J-0.7929
G02 X32.2776 Y63.7094 I-1.0009 J-0.1478
G01 Z-5.0000 F1200
G02 X32.0216 Y65.4429 I0.3725 J0.9406 F6000
G02 X33.6509 Y64.7978 I0.6284 J-0.7929
G02 X32.2776 Y63.7094 I-1.0009 J-0.1478
G01 Z-6.0000 F1200
G02 X32.0216 Y65.4429 I0.3725 J0.9406 F6000
G02 X33.6509 Y64.7978 I0.6284 J-0.7929
G02 X32.2776 Y63.7094 I-1.0009 J-0.1478
G01 Z-7.0000 F1200
G02 X32.0216 Y65.4429 I0.3725 J0.9406 F6000
G02 X33.6509 Y64.7978 I0.6284 J-0.7929
G02 X32.2776 Y63.7094 I-1.0009 J-0.1478
G01 Z-8.0000 F1200
G02 X32.0216 Y65.4429 I0.3725 J0.9406 F6000
G02 X33.6509 Y64.7978 I0.6284 J-0.7929
G02 X32.2776 Y63.7094 I-1.0009 J-0.1478
G01 Z-9.0000 F1200
G02 X32.0216 Y65.4429 I0.3725 J0.9406 F6000
G02 X33.6509 Y64.7978 I0.6284 J-0.7929
G02 X32.2776 Y63.7094 I-1.0009 J-0.1478
G01 Z-10.0000 F1200
G02 X32.0216 Y65.4429 I0.3725 J0.9406 F6000
G02 X33.6509 Y64.7978 I0.6284 J-0.7929
G02 X32.2776 Y63.7094 I-1.0009 J-0.1478
G01 Z-11.0000 F1200
G02 X32.0216 Y65.4429 I0.3725 J0.9406 F6000
G02 X33.6509 Y64.7978 I0.6284 J-0.7929
G02 X32.2776 Y63.7094 I-1.0009 J-0.1478
G01 Z-12.0000 F1200
G02 X32.0216 Y65.4429 I0.3725 J0.9406 F6000
G02 X33.6509 Y64.7978 I0.6284 J-0.7929
G02 X32.2776 Y63.7094 I-1.0009 J-0.1478
G01 Z-13.0000 F1200
G02 X32.0216 Y65.4429 I0.3725 J0.9406 F6000
G02 X33.6509 Y64.7978 I0.6284 J-0.7929
G02 X32.2776 Y63.7094 I-1.0009 J-0.1478
G01 Z-14.0000 F1200
G02 X32.0216 Y65.4429 I0.3725 J0.9406 F6000
G02 X33.6509 Y64.7978 I0.6284 J-0.7929
G02 X32.2776 Y63.7094 I-1.0009 J-0.1478
G01 Z-15.0000 F1200
G02 X32.0216 Y65.4429 I0.3725 J0.9406 F6000
G02 X33.6509 Y64.7978 I0.6284 J-0.7929
G02 X32.2776 Y63.7094 I-1.0009 J-0.1478
G01 Z-16.0000 F1200
G02 X32.0216 Y65.4429 I0.3725 J0.9406 F6000
G02 X33.6509 Y64.7978 I0.6284 J-0.7929
G02 X32.2776 Y63.7094 I-1.0009 J-0.1478
G01 Z-17.0000 F1200
G02 X32.0216 Y65.4429 I0.3725 J0.9406 F6000
G02 X33.6509 Y64.7978 I0.6284 J-0.7929
G02 X32.2776 Y63.7094 I-1.0009 J-0.1478
G01 Z-18.0000 F1200
G02 X32.0216 Y65.4429 I0.3725 J0.9406 F6000
G02 X33.6509 Y64.7978 I0.6284 J-0.7929
G02 X32.2776 Y63.7094 I-1.0009 J-0.1478
G01 Z-19.0000 F1200
G02 X32.0216 Y65.4429 I0.3725 J0.9406 F6000
G02 X33.6509 Y64.7978 I0.6284 J-0.7929
G02 X32.2776 Y63.7094 I-1.0009 J-0.1478
G01 Z-19.4000 F1200
G02 X32.0216 Y65.4429 I0.3725 J0.9406 F6000
G02 X33.6509 Y64.7978 I0.6284 J-0.7929
G02 X32.2776 Y63.7094 I-1.0009 J-0.1478
G00 Z5.0000


(No. 4: Hole 5)
G00 X28.1965 Y73.9436 Z5.0000
G00 Z0.5000
G01 Z0.0000 F1200
G01 Z-1.0000
G02 X23.0067 Y98.3600 I4.4535 J13.7064 F6000
G02 X46.7468 Y90.6464 I9.6433 J-10.7100
G02 X28.1965 Y73.9436 I-14.0968 J-2.9964
G01 Z-2.0000 F1200
G02 X23.0067 Y98.3600 I4.4535 J13.7064 F6000
G02 X46.7468 Y90.6464 I9.6433 J-10.7100
G02 X28.1965 Y73.9436 I-14.0968 J-2.9964
G01 Z-3.0000 F1200
G02 X23.0067 Y98.3600 I4.4535 J13.7064 F6000
G02 X46.7468 Y90.6464 I9.6433 J-10.7100
G02 X28.1965 Y73.9436 I-14.0968 J-2.9964
G01 Z-4.0000 F1200
G02 X23.0067 Y98.3600 I4.4535 J13.7064 F6000
G02 X46.7468 Y90.6464 I9.6433 J-10.7100
G02 X28.1965 Y73.9436 I-14.0968 J-2.9964
G01 Z-5.0000 F1200
G02 X23.0067 Y98.3600 I4.4535 J13.7064 F6000
G02 X46.7468 Y90.6464 I9.6433 J-10.7100
G02 X28.1965 Y73.9436 I-14.0968 J-2.9964
G01 Z-6.0000 F1200
G02 X23.0067 Y98.3600 I4.4535 J13.7064 F6000
G02 X46.7468 Y90.6464 I9.6433 J-10.7100
G02 X28.1965 Y73.9436 I-14.0968 J-2.9964
G01 Z-7.0000 F1200
G02 X23.0067 Y98.3600 I4.4535 J13.7064 F6000
G02 X46.7468 Y90.6464 I9.6433 J-10.7100
G02 X28.1965 Y73.9436 I-14.0968 J-2.9964
G01 Z-8.0000 F1200
G02 X23.0067 Y98.3600 I4.4535 J13.7064 F6000
G02 X46.7468 Y90.6464 I9.6433 J-10.7100
G02 X28.1965 Y73.9436 I-14.0968 J-2.9964
G01 Z-9.0000 F1200
G02 X23.0067 Y98.3600 I4.4535 J13.7064 F6000
G02 X46.7468 Y90.6464 I9.6433 J-10.7100
G02 X28.1965 Y73.9436 I-14.0968 J-2.9964
G01 Z-10.0000 F1200
G02 X23.0067 Y98.3600 I4.4535 J13.7064 F6000
G02 X46.7468 Y90.6464 I9.6433 J-10.7100
G02 X28.1965 Y73.9436 I-14.0968 J-2.9964
G01 Z-11.0000 F1200
G02 X23.0067 Y98.3600 I4.4535 J13.7064 F6000
G02 X46.7468 Y90.6464 I9.6433 J-10.7100
G02 X28.1965 Y73.9436 I-14.0968 J-2.9964
G01 Z-12.0000 F1200
G02 X23.0067 Y98.3600 I4.4535 J13.7064 F6000
G02 X46.7468 Y90.6464 I9.6433 J-10.7100
G02 X28.1965 Y73.9436 I-14.0968 J-2.9964
G01 Z-13.0000 F1200
G02 X23.0067 Y98.3600 I4.4535 J13.7064 F6000
G02 X46.7468 Y90.6464 I9.6433 J-10.7100
G02 X28.1965 Y73.9436 I-14.0968 J-2.9964
G01 Z-14.0000 F1200
G02 X23.0067 Y98.3600 I4.4535 J13.7064 F6000
G02 X46.7468 Y90.6464 I9.6433 J-10.7100
G02 X28.1965 Y73.9436 I-14.0968 J-2.9964
G01 Z-15.0000 F1200
G02 X23.0067 Y98.3600 I4.4535 J13.7064 F6000
G02 X46.7468 Y90.6464 I9.6433 J-10.7100
G02 X28.1965 Y73.9436 I-14.0968 J-2.9964
G01 Z-16.0000 F1200
G02 X23.0067 Y98.3600 I4.4535 J13.7064 F6000
G02 X46.7468 Y90.6464 I9.6433 J-10.7100
G02 X28.1965 Y73.9436 I-14.0968 J-2.9964
G01 Z-17.0000 F1200
G02 X23.0067 Y98.3600 I4.4535 J13.7064 F6000
G02 X46.7468 Y90.6464 I9.6433 J-10.7100
G02 X28.1965 Y73.9436 I-14.0968 J-2.9964
G01 Z-18.0000 F1200
G02 X23.0067 Y98.3600 I4.4535 J13.7064 F6000
G02 X46.7468 Y90.6464 I9.6433 J-10.7100
G02 X28.1965 Y73.9436 I-14.0968 J-2.9964
G01 Z-19.0000 F1200
G02 X23.0067 Y98.3600 I4.4535 J13.7064 F6000
G02 X46.7468 Y90.6464 I9.6433 J-10.7100
G02 X28.1965 Y73.9436 I-14.0968 J-2.9964
G01 Z-19.4000 F1200
G02 X23.0067 Y98.3600 I4.4535 J13.7064 F6000
G02 X46.7468 Y90.6464 I9.6433 J-10.7100
G02 X28.1965 Y73.9436 I-14.0968 J-2.9964
G00 Z5.0000


(No. 5: Hole 1)
G00 X32.3984 Y109.6701 Z5.0000
G00 Z0.5000
G01 Z0.0000 F1200
G01 Z-1.0000
G02 X31.9272 Y111.3579 I0.2516 J0.9799 F6000
G02 X33.6245 Y110.9221 I0.7228 J-0.7079
G02 X32.3984 Y109.6701 I-0.9744 J-0.2721
G01 Z-2.0000 F1200
G02 X31.9272 Y111.3579 I0.2516 J0.9799 F6000
G02 X33.6245 Y110.9221 I0.7228 J-0.7079
G02 X32.3984 Y109.6701 I-0.9744 J-0.2721
G01 Z-3.0000 F1200
G02 X31.9272 Y111.3579 I0.2516 J0.9799 F6000
G02 X33.6245 Y110.9221 I0.7228 J-0.7079
G02 X32.3984 Y109.6701 I-0.9744 J-0.2721
G01 Z-4.0000 F1200
G02 X31.9272 Y111.3579 I0.2516 J0.9799 F6000
G02 X33.6245 Y110.9221 I0.7228 J-0.7079
G02 X32.3984 Y109.6701 I-0.9744 J-0.2721
G01 Z-5.0000 F1200
G02 X31.9272 Y111.3579 I0.2516 J0.9799 F6000
G02 X33.6245 Y110.9221 I0.7228 J-0.7079
G02 X32.3984 Y109.6701 I-0.9744 J-0.2721
G01 Z-6.0000 F1200
G02 X31.9272 Y111.3579 I0.2516 J0.9799 F6000
G02 X33.6245 Y110.9221 I0.7228 J-0.7079
G02 X32.3984 Y109.6701 I-0.9744 J-0.2721
G01 Z-7.0000 F1200
G02 X31.9272 Y111.3579 I0.2516 J0.9799 F6000
G02 X33.6245 Y110.9221 I0.7228 J-0.7079
G02 X32.3984 Y109.6701 I-0.9744 J-0.2721
G01 Z-8.0000 F1200
G02 X31.9272 Y111.3579 I0.2516 J0.9799 F6000
G02 X33.6245 Y110.9221 I0.7228 J-0.7079
G02 X32.3984 Y109.6701 I-0.9744 J-0.2721
G01 Z-9.0000 F1200
G02 X31.9272 Y111.3579 I0.2516 J0.9799 F6000
G02 X33.6245 Y110.9221 I0.7228 J-0.7079
G02 X32.3984 Y109.6701 I-0.9744 J-0.2721
G01 Z-10.0000 F1200
G02 X31.9272 Y111.3579 I0.2516 J0.9799 F6000
G02 X33.6245 Y110.9221 I0.7228 J-0.7079
G02 X32.3984 Y109.6701 I-0.9744 J-0.2721
G01 Z-11.0000 F1200
G02 X31.9272 Y111.3579 I0.2516 J0.9799 F6000
G02 X33.6245 Y110.9221 I0.7228 J-0.7079
G02 X32.3984 Y109.6701 I-0.9744 J-0.2721
G01 Z-12.0000 F1200
G02 X31.9272 Y111.3579 I0.2516 J0.9799 F6000
G02 X33.6245 Y110.9221 I0.7228 J-0.7079
G02 X32.3984 Y109.6701 I-0.9744 J-0.2721
G01 Z-13.0000 F1200
G02 X31.9272 Y111.3579 I0.2516 J0.9799 F6000
G02 X33.6245 Y110.9221 I0.7228 J-0.7079
G02 X32.3984 Y109.6701 I-0.9744 J-0.2721
G01 Z-14.0000 F1200
G02 X31.9272 Y111.3579 I0.2516 J0.9799 F6000
G02 X33.6245 Y110.9221 I0.7228 J-0.7079
G02 X32.3984 Y109.6701 I-0.9744 J-0.2721
G01 Z-15.0000 F1200
G02 X31.9272 Y111.3579 I0.2516 J0.9799 F6000
G02 X33.6245 Y110.9221 I0.7228 J-0.7079
G02 X32.3984 Y109.6701 I-0.9744 J-0.2721
G01 Z-16.0000 F1200
G02 X31.9272 Y111.3579 I0.2516 J0.9799 F6000
G02 X33.6245 Y110.9221 I0.7228 J-0.7079
G02 X32.3984 Y109.6701 I-0.9744 J-0.2721
G01 Z-17.0000 F1200
G02 X31.9272 Y111.3579 I0.2516 J0.9799 F6000
G02 X33.6245 Y110.9221 I0.7228 J-0.7079
G02 X32.3984 Y109.6701 I-0.9744 J-0.2721
G01 Z-18.0000 F1200
G02 X31.9272 Y111.3579 I0.2516 J0.9799 F6000
G02 X33.6245 Y110.9221 I0.7228 J-0.7079
G02 X32.3984 Y109.6701 I-0.9744 J-0.2721
G01 Z-19.0000 F1200
G02 X31.9272 Y111.3579 I0.2516 J0.9799 F6000
G02 X33.6245 Y110.9221 I0.7228 J-0.7079
G02 X32.3984 Y109.6701 I-0.9744 J-0.2721
G01 Z-19.4000 F1200
G02 X31.9272 Y111.3579 I0.2516 J0.9799 F6000
G02 X33.6245 Y110.9221 I0.7228 J-0.7079
G02 X32.3984 Y109.6701 I-0.9744 J-0.2721
G00 Z5.0000


(No. 6: Hole 4)
G00 X58.6319 Y27.0905 Z5.0000
G00 Z0.5000
G01 Z0.0000 F1200
G01 Z-1.0000
G02 X59.6745 Y28.8115 I1.0181 J0.5595 F6000
G02 X60.6436 Y27.0481 I-0.0245 J-1.1614
G02 X58.6319 Y27.0905 I-0.9936 J0.6019
G01 Z-2.0000 F1200
G02 X59.6745 Y28.8115 I1.0181 J0.5595 F6000
G02 X60.6436 Y27.0481 I-0.0245 J-1.1614
G02 X58.6319 Y27.0905 I-0.9936 J0.6019
G01 Z-3.0000 F1200
G02 X59.6745 Y28.8115 I1.0181 J0.5595 F6000
G02 X60.6436 Y27.0481 I-0.0245 J-1.1614
G02 X58.6319 Y27.0905 I-0.9936 J0.6019
G01 Z-4.0000 F1200
G02 X59.6745 Y28.8115 I1.0181 J0.5595 F6000
G02 X60.6436 Y27.0481 I-0.0245 J-1.1614
G02 X58.6319 Y27.0905 I-0.9936 J0.6019
G01 Z-5.0000 F1200
G02 X59.6745 Y28.8115 I1.0181 J0.5595 F6000
G02 X60.6436 Y27.0481 I-0.0245 J-1.1614
G02 X58.6319 Y27.0905 I-0.9936 J0.6019
G01 Z-6.0000 F1200
G02 X59.6745 Y28.8115 I1.0181 J0.5595 F6000
G02 X60.6436 Y27.0481 I-0.0245 J-1.1614
G02 X58.6319 Y27.0905 I-0.9936 J0.6019
G01 Z-7.0000 F1200
G02 X59.6745 Y28.8115 I1.0181 J0.5595 F6000
G02 X60.6436 Y27.0481 I-0.0245 J-1.1614
G02 X58.6319 Y27.0905 I-0.9936 J0.6019
G01 Z-8.0000 F1200
G02 X59.6745 Y28.8115 I1.0181 J0.5595 F6000
G02 X60.6436 Y27.0481 I-0.0245 J-1.1614
G02 X58.6319 Y27.0905 I-0.9936 J0.6019
G01 Z-9.0000 F1200
G02 X59.6745 Y28.8115 I1.0181 J0.5595 F6000
G02 X60.6436 Y27.0481 I-0.0245 J-1.1614
G02 X58.6319 Y27.0905 I-0.9936 J0.6019
G01 Z-10.0000 F1200
G02 X59.6745 Y28.8115 I1.0181 J0.5595 F6000
G02 X60.6436 Y27.0481 I-0.0245 J-1.1614
G02 X58.6319 Y27.0905 I-0.9936 J0.6019
G01 Z-11.0000 F1200
G02 X59.6745 Y28.8115 I1.0181 J0.5595 F6000
G02 X60.6436 Y27.0481 I-0.0245 J-1.1614
G02 X58.6319 Y27.0905 I-0.9936 J0.6019
G01 Z-12.0000 F1200
G02 X59.6745 Y28.8115 I1.0181 J0.5595 F6000
G02 X60.6436 Y27.0481 I-0.0245 J-1.1614
G02 X58.6319 Y27.0905 I-0.9936 J0.6019
G01 Z-13.0000 F1200
G02 X59.6745 Y28.8115 I1.0181 J0.5595 F6000
G02 X60.6436 Y27.0481 I-0.0245 J-1.1614
G02 X58.6319 Y27.0905 I-0.9936 J0.6019
G01 Z-14.0000 F1200
G02 X59.6745 Y28.8115 I1.0181 J0.5595 F6000
G02 X60.6436 Y27.0481 I-0.0245 J-1.1614
G02 X58.6319 Y27.0905 I-0.9936 J0.6019
G01 Z-15.0000 F1200
G02 X59.6745 Y28.8115 I1.0181 J0.5595 F6000
G02 X60.6436 Y27.0481 I-0.0245 J-1.1614
G02 X58.6319 Y27.0905 I-0.9936 J0.6019
G01 Z-16.0000 F1200
G02 X59.6745 Y28.8115 I1.0181 J0.5595 F6000
G02 X60.6436 Y27.0481 I-0.0245 J-1.1614
G02 X58.6319 Y27.0905 I-0.9936 J0.6019
G01 Z-17.0000 F1200
G02 X59.6745 Y28.8115 I1.0181 J0.5595 F6000
G02 X60.6436 Y27.0481 I-0.0245 J-1.1614
G02 X58.6319 Y27.0905 I-0.9936 J0.6019
G01 Z-18.0000 F1200
G02 X59.6745 Y28.8115 I1.0181 J0.5595 F6000
G02 X60.6436 Y27.0481 I-0.0245 J-1.1614
G02 X58.6319 Y27.0905 I-0.9936 J0.6019
G01 Z-19.0000 F1200
G02 X59.6745 Y28.8115 I1.0181 J0.5595 F6000
G02 X60.6436 Y27.0481 I-0.0245 J-1.1614
G02 X58.6319 Y27.0905 I-0.9936 J0.6019
G01 Z-19.4000 F1200
G02 X59.6745 Y28.8115 I1.0181 J0.5595 F6000
G02 X60.6436 Y27.0481 I-0.0245 J-1.1614
G02 X58.6319 Y27.0905 I-0.9936 J0.6019
G00 Z5.0000


(No. 7: Part 1)
G00 X9.2122 Y7.6914 Z5.0000
G00 Z0.5000
G01 Z0.0000 F1200
G01 Z-1.0000
G03 X66.8878 Y32.6345 I23.4377 J24.9581 F6000
G01 X66.2372 Y87.6843
G03 X-0.9372 I-33.5872 J-0.0332
G01 X-1.5878 Y32.6345
G03 X9.2122 Y7.6914 I34.2356 J0.0139
G01 Z-2.0000 F1200
G03 X66.8878 Y32.6345 I23.4377 J24.9581 F6000
G01 X66.2372 Y87.6843
G03 X-0.9372 I-33.5872 J-0.0332
G01 X-1.5878 Y32.6345
G03 X9.2122 Y7.6914 I34.2356 J0.0139
G01 Z-3.0000 F1200
G03 X66.8878 Y32.6345 I23.4377 J24.9581 F6000
G01 X66.2372 Y87.6843
G03 X-0.9372 I-33.5872 J-0.0332
G01 X-1.5878 Y32.6345
G03 X9.2122 Y7.6914 I34.2356 J0.0139
G01 Z-4.0000 F1200
G03 X66.8878 Y32.6345 I23.4377 J24.9581 F6000
G01 X66.2372 Y87.6843
G03 X-0.9372 I-33.5872 J-0.0332
G01 X-1.5878 Y32.6345
G03 X9.2122 Y7.6914 I34.2356 J0.0139
G01 Z-5.0000 F1200
G03 X66.8878 Y32.6345 I23.4377 J24.9581 F6000
G01 X66.2372 Y87.6843
G03 X-0.9372 I-33.5872 J-0.0332
G01 X-1.5878 Y32.6345
G03 X9.2122 Y7.6914 I34.2356 J0.0139
G01 Z-6.0000 F1200
G03 X66.8878 Y32.6345 I23.4377 J24.9581 F6000
G01 X66.2372 Y87.6843
G03 X-0.9372 I-33.5872 J-0.0332
G01 X-1.5878 Y32.6345
G03 X9.2122 Y7.6914 I34.2356 J0.0139
G01 Z-7.0000 F1200
G03 X66.8878 Y32.6345 I23.4377 J24.9581 F6000
G01 X66.2372 Y87.6843
G03 X-0.9372 I-33.5872 J-0.0332
G01 X-1.5878 Y32.6345
G03 X9.2122 Y7.6914 I34.2356 J0.0139
G01 Z-8.0000 F1200
G03 X66.8878 Y32.6345 I23.4377 J24.9581 F6000
G01 X66.2372 Y87.6843
G03 X-0.9372 I-33.5872 J-0.0332
G01 X-1.5878 Y32.6345
G03 X9.2122 Y7.6914 I34.2356 J0.0139
G01 Z-9.0000 F1200
G03 X66.8878 Y32.6345 I23.4377 J24.9581 F6000
G01 X66.2372 Y87.6843
G03 X-0.9372 I-33.5872 J-0.0332
G01 X-1.5878 Y32.6345
G03 X9.2122 Y7.6914 I34.2356 J0.0139
G01 Z-10.0000 F1200
G03 X66.8878 Y32.6345 I23.4377 J24.9581 F6000
G01 X66.2372 Y87.6843
G03 X-0.9372 I-33.5872 J-0.0332
G01 X-1.5878 Y32.6345
G03 X9.2122 Y7.6914 I34.2356 J0.0139
G01 Z-11.0000 F1200
G03 X66.8878 Y32.6345 I23.4377 J24.9581 F6000
G01 X66.2372 Y87.6843
G03 X-0.9372 I-33.5872 J-0.0332
G01 X-1.5878 Y32.6345
G03 X9.2122 Y7.6914 I34.2356 J0.0139
G01 Z-12.0000 F1200
G03 X66.8878 Y32.6345 I23.4377 J24.9581 F6000
G01 X66.2372 Y87.6843
G03 X-0.9372 I-33.5872 J-0.0332
G01 X-1.5878 Y32.6345
G03 X9.2122 Y7.6914 I34.2356 J0.0139
G01 Z-13.0000 F1200
G03 X66.8878 Y32.6345 I23.4377 J24.9581 F6000
G01 X66.2372 Y87.6843
G03 X-0.9372 I-33.5872 J-0.0332
G01 X-1.5878 Y32.6345
G03 X9.2122 Y7.6914 I34.2356 J0.0139
G01 Z-14.0000 F1200
G03 X66.8878 Y32.6345 I23.4377 J24.9581 F6000
G01 X66.2372 Y87.6843
G03 X-0.9372 I-33.5872 J-0.0332
G01 X-1.5878 Y32.6345
G03 X9.2122 Y7.6914 I34.2356 J0.0139
G01 Z-15.0000 F1200
G03 X66.8878 Y32.6345 I23.4377 J24.9581 F6000
G01 X66.2372 Y87.6843
G03 X-0.9372 I-33.5872 J-0.0332
G01 X-1.5878 Y32.6345
G03 X9.2122 Y7.6914 I34.2356 J0.0139
G01 Z-16.0000 F1200
G03 X66.8878 Y32.6345 I23.4377 J24.9581 F6000
G01 X66.2372 Y87.6843
G03 X-0.9372 I-33.5872 J-0.0332
G01 X-1.5878 Y32.6345
G03 X9.2122 Y7.6914 I34.2356 J0.0139
G01 Z-17.0000 F1200
G03 X66.8878 Y32.6345 I23.4377 J24.9581 F6000
G01 X66.2372 Y87.6843
G03 X-0.9372 I-33.5872 J-0.0332
G01 X-1.5878 Y32.6345
G03 X9.2122 Y7.6914 I34.2356 J0.0139
G01 Z-18.0000 F1200
G03 X66.8878 Y32.6345 I23.4377 J24.9581 F6000
G01 X66.2372 Y87.6843
G03 X-0.9372 I-33.5872 J-0.0332
G01 X-1.5878 Y32.6345
G03 X9.2122 Y7.6914 I34.2356 J0.0139
G01 Z-19.0000 F1200
G03 X66.8878 Y32.6345 I23.4377 J24.9581 F6000
G01 X66.2372 Y87.6843
G03 X-0.9372 I-33.5872 J-0.0332
G01 X-1.5878 Y32.6345
G03 X9.2122 Y7.6914 I34.2356 J0.0139
G01 Z-19.4000 F1200
G03 X66.8878 Y32.6345 I23.4377 J24.9581 F6000
G01 X66.2372 Y87.6843
G03 X-0.9372 I-33.5872 J-0.0332
G01 X-1.5878 Y32.6345
G03 X9.2122 Y7.6914 I34.2356 J0.0139
G00 Z5.0000
G00 X0.0000 Y0.0000

M05
M30
