(Project quickshoe)
(Created by Estlcam version 11 build 11.235)
(Machining time about 00:02:18 hours)

(Required tools:)
(Endmil 3.175)
G21
G90
G94
M03 S12000
G00 Z5.0000


(No. 1: Hole 1)
G00 X19.2885 Y16.4987
G00 Z0.5000
G01 Z0.0000 F2400 S12000
G01 Z-1.0000
G02 X25.3433 Y52.2970 I13.3615 J16.1513 F6000
G02 X53.3182 Y29.1543 I7.3067 J-19.6470
G02 X19.2885 Y16.4987 I-20.6682 J3.4957
G01 Z-2.0000 F2400
G02 X25.3433 Y52.2970 I13.3615 J16.1513 F6000
G02 X53.3182 Y29.1543 I7.3067 J-19.6470
G02 X19.2885 Y16.4987 I-20.6682 J3.4957
G01 Z-3.0000 F2400
G02 X25.3433 Y52.2970 I13.3615 J16.1513 F6000
G02 X53.3182 Y29.1543 I7.3067 J-19.6470
G02 X19.2885 Y16.4987 I-20.6682 J3.4957
G01 Z-4.0000 F2400
G02 X25.3433 Y52.2970 I13.3615 J16.1513 F6000
G02 X53.3182 Y29.1543 I7.3067 J-19.6470
G02 X19.2885 Y16.4987 I-20.6682 J3.4957
G01 Z-5.0000 F2400
G02 X25.3433 Y52.2970 I13.3615 J16.1513 F6000
G02 X53.3182 Y29.1543 I7.3067 J-19.6470
G02 X19.2885 Y16.4987 I-20.6682 J3.4957
G01 Z-6.0000 F2400
G02 X25.3433 Y52.2970 I13.3615 J16.1513 F6000
G02 X53.3182 Y29.1543 I7.3067 J-19.6470
G02 X19.2885 Y16.4987 I-20.6682 J3.4957
G01 Z-7.0000 F2400
G02 X25.3433 Y52.2970 I13.3615 J16.1513 F6000
G02 X53.3182 Y29.1543 I7.3067 J-19.6470
G02 X19.2885 Y16.4987 I-20.6682 J3.4957
G01 Z-8.0000 F2400
G02 X25.3433 Y52.2970 I13.3615 J16.1513 F6000
G02 X53.3182 Y29.1543 I7.3067 J-19.6470
G02 X19.2885 Y16.4987 I-20.6682 J3.4957
G01 Z-9.0000 F2400
G02 X25.3433 Y52.2970 I13.3615 J16.1513 F6000
G02 X53.3182 Y29.1543 I7.3067 J-19.6470
G02 X19.2885 Y16.4987 I-20.6682 J3.4957
G01 Z-10.0000 F2400
G02 X25.3433 Y52.2970 I13.3615 J16.1513 F6000
G02 X53.3182 Y29.1543 I7.3067 J-19.6470
G02 X19.2885 Y16.4987 I-20.6682 J3.4957
G01 Z-11.0000 F2400
G02 X25.3433 Y52.2970 I13.3615 J16.1513 F6000
G02 X53.3182 Y29.1543 I7.3067 J-19.6470
G02 X19.2885 Y16.4987 I-20.6682 J3.4957
G01 Z-12.0000 F2400
G02 X25.3433 Y52.2970 I13.3615 J16.1513 F6000
G02 X53.3182 Y29.1543 I7.3067 J-19.6470
G02 X19.2885 Y16.4987 I-20.6682 J3.4957
G01 Z-13.0000 F2400
G02 X25.3433 Y52.2970 I13.3615 J16.1513 F6000
G02 X53.3182 Y29.1543 I7.3067 J-19.6470
G02 X19.2885 Y16.4987 I-20.6682 J3.4957
G01 Z-14.0000 F2400
G02 X25.3433 Y52.2970 I13.3615 J16.1513 F6000
G02 X53.3182 Y29.1543 I7.3067 J-19.6470
G02 X19.2885 Y16.4987 I-20.6682 J3.4957
G01 Z-15.0000 F2400
G02 X25.3433 Y52.2970 I13.3615 J16.1513 F6000
G02 X53.3182 Y29.1543 I7.3067 J-19.6470
G02 X19.2885 Y16.4987 I-20.6682 J3.4957
G01 Z-16.0000 F2400
G02 X25.3433 Y52.2970 I13.3615 J16.1513 F6000
G02 X53.3182 Y29.1543 I7.3067 J-19.6470
G02 X19.2885 Y16.4987 I-20.6682 J3.4957
G01 Z-17.0000 F2400
G02 X25.3433 Y52.2970 I13.3615 J16.1513 F6000
G02 X53.3182 Y29.1543 I7.3067 J-19.6470
G02 X19.2885 Y16.4987 I-20.6682 J3.4957
G01 Z-18.0000 F2400
G02 X25.3433 Y52.2970 I13.3615 J16.1513 F6000
G02 X53.3182 Y29.1543 I7.3067 J-19.6470
G02 X19.2885 Y16.4987 I-20.6682 J3.4957
G01 Z-19.0000 F2400
G02 X25.3433 Y52.2970 I13.3615 J16.1513 F6000
G02 X53.3182 Y29.1543 I7.3067 J-19.6470
G02 X19.2885 Y16.4987 I-20.6682 J3.4957
G01 Z-19.4000 F2400
G02 X25.3433 Y52.2970 I13.3615 J16.1513 F6000
G02 X53.3182 Y29.1543 I7.3067 J-19.6470
G02 X19.2885 Y16.4987 I-20.6682 J3.4957
G00 Z5.0000


(No. 2: Hole 2)
G00 X5.6232 Y27.4400 Z5.0000
G00 Z0.5000
G01 Z0.0000 F2400
G01 Z-1.0000
G02 X5.4815 Y27.7782 I0.0268 J0.2100 F6000
G02 X5.8453 Y27.7318 I0.1685 J-0.1282
G02 X5.6232 Y27.4400 I-0.1953 J-0.0818
G01 Z-2.0000 F2400
G02 X5.4815 Y27.7782 I0.0268 J0.2100 F6000
G02 X5.8453 Y27.7318 I0.1685 J-0.1282
G02 X5.6232 Y27.4400 I-0.1953 J-0.0818
G01 Z-3.0000 F2400
G02 X5.4815 Y27.7782 I0.0268 J0.2100 F6000
G02 X5.8453 Y27.7318 I0.1685 J-0.1282
G02 X5.6232 Y27.4400 I-0.1953 J-0.0818
G01 Z-4.0000 F2400
G02 X5.4815 Y27.7782 I0.0268 J0.2100 F6000
G02 X5.8453 Y27.7318 I0.1685 J-0.1282
G02 X5.6232 Y27.4400 I-0.1953 J-0.0818
G01 Z-5.0000 F2400
G02 X5.4815 Y27.7782 I0.0268 J0.2100 F6000
G02 X5.8453 Y27.7318 I0.1685 J-0.1282
G02 X5.6232 Y27.4400 I-0.1953 J-0.0818
G01 Z-6.0000 F2400
G02 X5.4815 Y27.7782 I0.0268 J0.2100 F6000
G02 X5.8453 Y27.7318 I0.1685 J-0.1282
G02 X5.6232 Y27.4400 I-0.1953 J-0.0818
G01 Z-7.0000 F2400
G02 X5.4815 Y27.7782 I0.0268 J0.2100 F6000
G02 X5.8453 Y27.7318 I0.1685 J-0.1282
G02 X5.6232 Y27.4400 I-0.1953 J-0.0818
G01 Z-8.0000 F2400
G02 X5.4815 Y27.7782 I0.0268 J0.2100 F6000
G02 X5.8453 Y27.7318 I0.1685 J-0.1282
G02 X5.6232 Y27.4400 I-0.1953 J-0.0818
G01 Z-9.0000 F2400
G02 X5.4815 Y27.7782 I0.0268 J0.2100 F6000
G02 X5.8453 Y27.7318 I0.1685 J-0.1282
G02 X5.6232 Y27.4400 I-0.1953 J-0.0818
G01 Z-10.0000 F2400
G02 X5.4815 Y27.7782 I0.0268 J0.2100 F6000
G02 X5.8453 Y27.7318 I0.1685 J-0.1282
G02 X5.6232 Y27.4400 I-0.1953 J-0.0818
G01 Z-11.0000 F2400
G02 X5.4815 Y27.7782 I0.0268 J0.2100 F6000
G02 X5.8453 Y27.7318 I0.1685 J-0.1282
G02 X5.6232 Y27.4400 I-0.1953 J-0.0818
G01 Z-12.0000 F2400
G02 X5.4815 Y27.7782 I0.0268 J0.2100 F6000
G02 X5.8453 Y27.7318 I0.1685 J-0.1282
G02 X5.6232 Y27.4400 I-0.1953 J-0.0818
G01 Z-13.0000 F2400
G02 X5.4815 Y27.7782 I0.0268 J0.2100 F6000
G02 X5.8453 Y27.7318 I0.1685 J-0.1282
G02 X5.6232 Y27.4400 I-0.1953 J-0.0818
G01 Z-14.0000 F2400
G02 X5.4815 Y27.7782 I0.0268 J0.2100 F6000
G02 X5.8453 Y27.7318 I0.1685 J-0.1282
G02 X5.6232 Y27.4400 I-0.1953 J-0.0818
G01 Z-15.0000 F2400
G02 X5.4815 Y27.7782 I0.0268 J0.2100 F6000
G02 X5.8453 Y27.7318 I0.1685 J-0.1282
G02 X5.6232 Y27.4400 I-0.1953 J-0.0818
G01 Z-16.0000 F2400
G02 X5.4815 Y27.7782 I0.0268 J0.2100 F6000
G02 X5.8453 Y27.7318 I0.1685 J-0.1282
G02 X5.6232 Y27.4400 I-0.1953 J-0.0818
G01 Z-17.0000 F2400
G02 X5.4815 Y27.7782 I0.0268 J0.2100 F6000
G02 X5.8453 Y27.7318 I0.1685 J-0.1282
G02 X5.6232 Y27.4400 I-0.1953 J-0.0818
G01 Z-18.0000 F2400
G02 X5.4815 Y27.7782 I0.0268 J0.2100 F6000
G02 X5.8453 Y27.7318 I0.1685 J-0.1282
G02 X5.6232 Y27.4400 I-0.1953 J-0.0818
G01 Z-19.0000 F2400
G02 X5.4815 Y27.7782 I0.0268 J0.2100 F6000
G02 X5.8453 Y27.7318 I0.1685 J-0.1282
G02 X5.6232 Y27.4400 I-0.1953 J-0.0818
G01 Z-19.4000 F2400
G02 X5.4815 Y27.7782 I0.0268 J0.2100 F6000
G02 X5.8453 Y27.7318 I0.1685 J-0.1282
G02 X5.6232 Y27.4400 I-0.1953 J-0.0818
G00 Z5.0000


(No. 3: Hole 3)
G00 X59.4645 Y27.5479 Z5.0000
G00 Z0.5000
G01 Z0.0000 F2400
G01 Z-1.0000
G02 X59.6544 Y27.8616 I0.1855 J0.1020 F6000
G02 X59.8311 Y27.5403 I-0.0044 J-0.2117
G02 X59.4645 Y27.5479 I-0.1811 J0.1097
G01 Z-2.0000 F2400
G02 X59.6544 Y27.8616 I0.1855 J0.1020 F6000
G02 X59.8311 Y27.5403 I-0.0044 J-0.2117
G02 X59.4645 Y27.5479 I-0.1811 J0.1097
G01 Z-3.0000 F2400
G02 X59.6544 Y27.8616 I0.1855 J0.1020 F6000
G02 X59.8311 Y27.5403 I-0.0044 J-0.2117
G02 X59.4645 Y27.5479 I-0.1811 J0.1097
G01 Z-4.0000 F2400
G02 X59.6544 Y27.8616 I0.1855 J0.1020 F6000
G02 X59.8311 Y27.5403 I-0.0044 J-0.2117
G02 X59.4645 Y27.5479 I-0.1811 J0.1097
G01 Z-5.0000 F2400
G02 X59.6544 Y27.8616 I0.1855 J0.1020 F6000
G02 X59.8311 Y27.5403 I-0.0044 J-0.2117
G02 X59.4645 Y27.5479 I-0.1811 J0.1097
G01 Z-6.0000 F2400
G02 X59.6544 Y27.8616 I0.1855 J0.1020 F6000
G02 X59.8311 Y27.5403 I-0.0044 J-0.2117
G02 X59.4645 Y27.5479 I-0.1811 J0.1097
G01 Z-7.0000 F2400
G02 X59.6544 Y27.8616 I0.1855 J0.1020 F6000
G02 X59.8311 Y27.5403 I-0.0044 J-0.2117
G02 X59.4645 Y27.5479 I-0.1811 J0.1097
G01 Z-8.0000 F2400
G02 X59.6544 Y27.8616 I0.1855 J0.1020 F6000
G02 X59.8311 Y27.5403 I-0.0044 J-0.2117
G02 X59.4645 Y27.5479 I-0.1811 J0.1097
G01 Z-9.0000 F2400
G02 X59.6544 Y27.8616 I0.1855 J0.1020 F6000
G02 X59.8311 Y27.5403 I-0.0044 J-0.2117
G02 X59.4645 Y27.5479 I-0.1811 J0.1097
G01 Z-10.0000 F2400
G02 X59.6544 Y27.8616 I0.1855 J0.1020 F6000
G02 X59.8311 Y27.5403 I-0.0044 J-0.2117
G02 X59.4645 Y27.5479 I-0.1811 J0.1097
G01 Z-11.0000 F2400
G02 X59.6544 Y27.8616 I0.1855 J0.1020 F6000
G02 X59.8311 Y27.5403 I-0.0044 J-0.2117
G02 X59.4645 Y27.5479 I-0.1811 J0.1097
G01 Z-12.0000 F2400
G02 X59.6544 Y27.8616 I0.1855 J0.1020 F6000
G02 X59.8311 Y27.5403 I-0.0044 J-0.2117
G02 X59.4645 Y27.5479 I-0.1811 J0.1097
G01 Z-13.0000 F2400
G02 X59.6544 Y27.8616 I0.1855 J0.1020 F6000
G02 X59.8311 Y27.5403 I-0.0044 J-0.2117
G02 X59.4645 Y27.5479 I-0.1811 J0.1097
G01 Z-14.0000 F2400
G02 X59.6544 Y27.8616 I0.1855 J0.1020 F6000
G02 X59.8311 Y27.5403 I-0.0044 J-0.2117
G02 X59.4645 Y27.5479 I-0.1811 J0.1097
G01 Z-15.0000 F2400
G02 X59.6544 Y27.8616 I0.1855 J0.1020 F6000
G02 X59.8311 Y27.5403 I-0.0044 J-0.2117
G02 X59.4645 Y27.5479 I-0.1811 J0.1097
G01 Z-16.0000 F2400
G02 X59.6544 Y27.8616 I0.1855 J0.1020 F6000
G02 X59.8311 Y27.5403 I-0.0044 J-0.2117
G02 X59.4645 Y27.5479 I-0.1811 J0.1097
G01 Z-17.0000 F2400
G02 X59.6544 Y27.8616 I0.1855 J0.1020 F6000
G02 X59.8311 Y27.5403 I-0.0044 J-0.2117
G02 X59.4645 Y27.5479 I-0.1811 J0.1097
G01 Z-18.0000 F2400
G02 X59.6544 Y27.8616 I0.1855 J0.1020 F6000
G02 X59.8311 Y27.5403 I-0.0044 J-0.2117
G02 X59.4645 Y27.5479 I-0.1811 J0.1097
G01 Z-19.0000 F2400
G02 X59.6544 Y27.8616 I0.1855 J0.1020 F6000
G02 X59.8311 Y27.5403 I-0.0044 J-0.2117
G02 X59.4645 Y27.5479 I-0.1811 J0.1097
G01 Z-19.4000 F2400
G02 X59.6544 Y27.8616 I0.1855 J0.1020 F6000
G02 X59.8311 Y27.5403 I-0.0044 J-0.2117
G02 X59.4645 Y27.5479 I-0.1811 J0.1097
G00 Z5.0000


(No. 4: Part 1)
G00 X9.2122 Y7.6914 Z5.0000
G00 Z0.5000
G01 Z0.0000 F2400
G01 Z-1.0000
G03 X66.8878 Y32.6345 I23.4377 J24.9581 F6000
G01 X66.3273 Y80.0625
G01 X77.6500
G03 X79.2375 Y81.6500 I0.0000 J1.5875
G01 Y86.3500
G03 X77.6500 Y87.9375 I-1.5875 J0.0000
G01 X58.6091
G03 X57.0224 Y86.3996 I0.0000 J-1.5875
G02 X8.2383 Y87.6500 I-24.3761 J1.2469
G02 X56.9989 Y89.3844 I24.4111 J0.0006
G03 X58.5640 Y88.0625 I1.5651 J0.2656
G01 X77.6500
G03 X79.2375 Y89.6500 I0.0000 J1.5875
G01 Y95.6500
G03 X77.6500 Y97.2375 I-1.5875 J0.0000
G01 X64.8244
G03 X32.6500 Y121.2383 I-32.1619 J-9.5486
G03 X-0.9372 Y87.6843 I-0.0008 J-33.5864
G01 X-1.5878 Y32.6345
G03 X9.2122 Y7.6914 I34.2356 J0.0139
G01 Z-2.0000 F2400
G03 X66.8878 Y32.6345 I23.4377 J24.9581 F6000
G01 X66.3273 Y80.0625
G01 X77.6500
G03 X79.2375 Y81.6500 I0.0000 J1.5875
G01 Y86.3500
G03 X77.6500 Y87.9375 I-1.5875 J0.0000
G01 X58.6091
G03 X57.0224 Y86.3996 I0.0000 J-1.5875
G02 X8.2383 Y87.6500 I-24.3761 J1.2469
G02 X56.9989 Y89.3844 I24.4111 J0.0006
G03 X58.5640 Y88.0625 I1.5651 J0.2656
G01 X77.6500
G03 X79.2375 Y89.6500 I0.0000 J1.5875
G01 Y95.6500
G03 X77.6500 Y97.2375 I-1.5875 J0.0000
G01 X64.8244
G03 X32.6500 Y121.2383 I-32.1619 J-9.5486
G03 X-0.9372 Y87.6843 I-0.0008 J-33.5864
G01 X-1.5878 Y32.6345
G03 X9.2122 Y7.6914 I34.2356 J0.0139
G01 Z-3.0000 F2400
G03 X66.8878 Y32.6345 I23.4377 J24.9581 F6000
G01 X66.3273 Y80.0625
G01 X77.6500
G03 X79.2375 Y81.6500 I0.0000 J1.5875
G01 Y86.3500
G03 X77.6500 Y87.9375 I-1.5875 J0.0000
G01 X58.6091
G03 X57.0224 Y86.3996 I0.0000 J-1.5875
G02 X8.2383 Y87.6500 I-24.3761 J1.2469
G02 X56.9989 Y89.3844 I24.4111 J0.0006
G03 X58.5640 Y88.0625 I1.5651 J0.2656
G01 X77.6500
G03 X79.2375 Y89.6500 I0.0000 J1.5875
G01 Y95.6500
G03 X77.6500 Y97.2375 I-1.5875 J0.0000
G01 X64.8244
G03 X32.6500 Y121.2383 I-32.1619 J-9.5486
G03 X-0.9372 Y87.6843 I-0.0008 J-33.5864
G01 X-1.5878 Y32.6345
G03 X9.2122 Y7.6914 I34.2356 J0.0139
G01 Z-4.0000 F2400
G03 X66.8878 Y32.6345 I23.4377 J24.9581 F6000
G01 X66.3273 Y80.0625
G01 X77.6500
G03 X79.2375 Y81.6500 I0.0000 J1.5875
G01 Y86.3500
G03 X77.6500 Y87.9375 I-1.5875 J0.0000
G01 X58.6091
G03 X57.0224 Y86.3996 I0.0000 J-1.5875
G02 X8.2383 Y87.6500 I-24.3761 J1.2469
G02 X56.9989 Y89.3844 I24.4111 J0.0006
G03 X58.5640 Y88.0625 I1.5651 J0.2656
G01 X77.6500
G03 X79.2375 Y89.6500 I0.0000 J1.5875
G01 Y95.6500
G03 X77.6500 Y97.2375 I-1.5875 J0.0000
G01 X64.8244
G03 X32.6500 Y121.2383 I-32.1619 J-9.5486
G03 X-0.9372 Y87.6843 I-0.0008 J-33.5864
G01 X-1.5878 Y32.6345
G03 X9.2122 Y7.6914 I34.2356 J0.0139
G01 Z-5.0000 F2400
G03 X66.8878 Y32.6345 I23.4377 J24.9581 F6000
G01 X66.3273 Y80.0625
G01 X77.6500
G03 X79.2375 Y81.6500 I0.0000 J1.5875
G01 Y86.3500
G03 X77.6500 Y87.9375 I-1.5875 J0.0000
G01 X58.6091
G03 X57.0224 Y86.3996 I0.0000 J-1.5875
G02 X8.2383 Y87.6500 I-24.3761 J1.2469
G02 X56.9989 Y89.3844 I24.4111 J0.0006
G03 X58.5640 Y88.0625 I1.5651 J0.2656
G01 X77.6500
G03 X79.2375 Y89.6500 I0.0000 J1.5875
G01 Y95.6500
G03 X77.6500 Y97.2375 I-1.5875 J0.0000
G01 X64.8244
G03 X32.6500 Y121.2383 I-32.1619 J-9.5486
G03 X-0.9372 Y87.6843 I-0.0008 J-33.5864
G01 X-1.5878 Y32.6345
G03 X9.2122 Y7.6914 I34.2356 J0.0139
G01 Z-6.0000 F2400
G03 X66.8878 Y32.6345 I23.4377 J24.9581 F6000
G01 X66.3273 Y80.0625
G01 X77.6500
G03 X79.2375 Y81.6500 I0.0000 J1.5875
G01 Y86.3500
G03 X77.6500 Y87.9375 I-1.5875 J0.0000
G01 X58.6091
G03 X57.0224 Y86.3996 I0.0000 J-1.5875
G02 X8.2383 Y87.6500 I-24.3761 J1.2469
G02 X56.9989 Y89.3844 I24.4111 J0.0006
G03 X58.5640 Y88.0625 I1.5651 J0.2656
G01 X77.6500
G03 X79.2375 Y89.6500 I0.0000 J1.5875
G01 Y95.6500
G03 X77.6500 Y97.2375 I-1.5875 J0.0000
G01 X64.8244
G03 X32.6500 Y121.2383 I-32.1619 J-9.5486
G03 X-0.9372 Y87.6843 I-0.0008 J-33.5864
G01 X-1.5878 Y32.6345
G03 X9.2122 Y7.6914 I34.2356 J0.0139
G01 Z-7.0000 F2400
G03 X66.8878 Y32.6345 I23.4377 J24.9581 F6000
G01 X66.3273 Y80.0625
G01 X77.6500
G03 X79.2375 Y81.6500 I0.0000 J1.5875
G01 Y86.3500
G03 X77.6500 Y87.9375 I-1.5875 J0.0000
G01 X58.6091
G03 X57.0224 Y86.3996 I0.0000 J-1.5875
G02 X8.2383 Y87.6500 I-24.3761 J1.2469
G02 X56.9989 Y89.3844 I24.4111 J0.0006
G03 X58.5640 Y88.0625 I1.5651 J0.2656
G01 X77.6500
G03 X79.2375 Y89.6500 I0.0000 J1.5875
G01 Y95.6500
G03 X77.6500 Y97.2375 I-1.5875 J0.0000
G01 X64.8244
G03 X32.6500 Y121.2383 I-32.1619 J-9.5486
G03 X-0.9372 Y87.6843 I-0.0008 J-33.5864
G01 X-1.5878 Y32.6345
G03 X9.2122 Y7.6914 I34.2356 J0.0139
G01 Z-8.0000 F2400
G03 X66.8878 Y32.6345 I23.4377 J24.9581 F6000
G01 X66.3273 Y80.0625
G01 X77.6500
G03 X79.2375 Y81.6500 I0.0000 J1.5875
G01 Y86.3500
G03 X77.6500 Y87.9375 I-1.5875 J0.0000
G01 X58.6091
G03 X57.0224 Y86.3996 I0.0000 J-1.5875
G02 X8.2383 Y87.6500 I-24.3761 J1.2469
G02 X56.9989 Y89.3844 I24.4111 J0.0006
G03 X58.5640 Y88.0625 I1.5651 J0.2656
G01 X77.6500
G03 X79.2375 Y89.6500 I0.0000 J1.5875
G01 Y95.6500
G03 X77.6500 Y97.2375 I-1.5875 J0.0000
G01 X64.8244
G03 X32.6500 Y121.2383 I-32.1619 J-9.5486
G03 X-0.9372 Y87.6843 I-0.0008 J-33.5864
G01 X-1.5878 Y32.6345
G03 X9.2122 Y7.6914 I34.2356 J0.0139
G01 Z-9.0000 F2400
G03 X66.8878 Y32.6345 I23.4377 J24.9581 F6000
G01 X66.3273 Y80.0625
G01 X77.6500
G03 X79.2375 Y81.6500 I0.0000 J1.5875
G01 Y86.3500
G03 X77.6500 Y87.9375 I-1.5875 J0.0000
G01 X58.6091
G03 X57.0224 Y86.3996 I0.0000 J-1.5875
G02 X8.2383 Y87.6500 I-24.3761 J1.2469
G02 X56.9989 Y89.3844 I24.4111 J0.0006
G03 X58.5640 Y88.0625 I1.5651 J0.2656
G01 X77.6500
G03 X79.2375 Y89.6500 I0.0000 J1.5875
G01 Y95.6500
G03 X77.6500 Y97.2375 I-1.5875 J0.0000
G01 X64.8244
G03 X32.6500 Y121.2383 I-32.1619 J-9.5486
G03 X-0.9372 Y87.6843 I-0.0008 J-33.5864
G01 X-1.5878 Y32.6345
G03 X9.2122 Y7.6914 I34.2356 J0.0139
G01 Z-10.0000 F2400
G03 X66.8878 Y32.6345 I23.4377 J24.9581 F6000
G01 X66.3273 Y80.0625
G01 X77.6500
G03 X79.2375 Y81.6500 I0.0000 J1.5875
G01 Y86.3500
G03 X77.6500 Y87.9375 I-1.5875 J0.0000
G01 X58.6091
G03 X57.0224 Y86.3996 I0.0000 J-1.5875
G02 X8.2383 Y87.6500 I-24.3761 J1.2469
G02 X56.9989 Y89.3844 I24.4111 J0.0006
G03 X58.5640 Y88.0625 I1.5651 J0.2656
G01 X77.6500
G03 X79.2375 Y89.6500 I0.0000 J1.5875
G01 Y95.6500
G03 X77.6500 Y97.2375 I-1.5875 J0.0000
G01 X64.8244
G03 X32.6500 Y121.2383 I-32.1619 J-9.5486
G03 X-0.9372 Y87.6843 I-0.0008 J-33.5864
G01 X-1.5878 Y32.6345
G03 X9.2122 Y7.6914 I34.2356 J0.0139
G01 Z-11.0000 F2400
G03 X66.8878 Y32.6345 I23.4377 J24.9581 F6000
G01 X66.3273 Y80.0625
G01 X77.6500
G03 X79.2375 Y81.6500 I0.0000 J1.5875
G01 Y86.3500
G03 X77.6500 Y87.9375 I-1.5875 J0.0000
G01 X58.6091
G03 X57.0224 Y86.3996 I0.0000 J-1.5875
G02 X8.2383 Y87.6500 I-24.3761 J1.2469
G02 X56.9989 Y89.3844 I24.4111 J0.0006
G03 X58.5640 Y88.0625 I1.5651 J0.2656
G01 X77.6500
G03 X79.2375 Y89.6500 I0.0000 J1.5875
G01 Y95.6500
G03 X77.6500 Y97.2375 I-1.5875 J0.0000
G01 X64.8244
G03 X32.6500 Y121.2383 I-32.1619 J-9.5486
G03 X-0.9372 Y87.6843 I-0.0008 J-33.5864
G01 X-1.5878 Y32.6345
G03 X9.2122 Y7.6914 I34.2356 J0.0139
G01 Z-12.0000 F2400
G03 X66.8878 Y32.6345 I23.4377 J24.9581 F6000
G01 X66.3273 Y80.0625
G01 X77.6500
G03 X79.2375 Y81.6500 I0.0000 J1.5875
G01 Y86.3500
G03 X77.6500 Y87.9375 I-1.5875 J0.0000
G01 X58.6091
G03 X57.0224 Y86.3996 I0.0000 J-1.5875
G02 X8.2383 Y87.6500 I-24.3761 J1.2469
G02 X56.9989 Y89.3844 I24.4111 J0.0006
G03 X58.5640 Y88.0625 I1.5651 J0.2656
G01 X77.6500
G03 X79.2375 Y89.6500 I0.0000 J1.5875
G01 Y95.6500
G03 X77.6500 Y97.2375 I-1.5875 J0.0000
G01 X64.8244
G03 X32.6500 Y121.2383 I-32.1619 J-9.5486
G03 X-0.9372 Y87.6843 I-0.0008 J-33.5864
G01 X-1.5878 Y32.6345
G03 X9.2122 Y7.6914 I34.2356 J0.0139
G01 Z-13.0000 F2400
G03 X66.8878 Y32.6345 I23.4377 J24.9581 F6000
G01 X66.3273 Y80.0625
G01 X77.6500
G03 X79.2375 Y81.6500 I0.0000 J1.5875
G01 Y86.3500
G03 X77.6500 Y87.9375 I-1.5875 J0.0000
G01 X58.6091
G03 X57.0224 Y86.3996 I0.0000 J-1.5875
G02 X8.2383 Y87.6500 I-24.3761 J1.2469
G02 X56.9989 Y89.3844 I24.4111 J0.0006
G03 X58.5640 Y88.0625 I1.5651 J0.2656
G01 X77.6500
G03 X79.2375 Y89.6500 I0.0000 J1.5875
G01 Y95.6500
G03 X77.6500 Y97.2375 I-1.5875 J0.0000
G01 X64.8244
G03 X32.6500 Y121.2383 I-32.1619 J-9.5486
G03 X-0.9372 Y87.6843 I-0.0008 J-33.5864
G01 X-1.5878 Y32.6345
G03 X9.2122 Y7.6914 I34.2356 J0.0139
G01 Z-14.0000 F2400
G03 X66.8878 Y32.6345 I23.4377 J24.9581 F6000
G01 X66.3273 Y80.0625
G01 X77.6500
G03 X79.2375 Y81.6500 I0.0000 J1.5875
G01 Y86.3500
G03 X77.6500 Y87.9375 I-1.5875 J0.0000
G01 X58.6091
G03 X57.0224 Y86.3996 I0.0000 J-1.5875
G02 X8.2383 Y87.6500 I-24.3761 J1.2469
G02 X56.9989 Y89.3844 I24.4111 J0.0006
G03 X58.5640 Y88.0625 I1.5651 J0.2656
G01 X77.6500
G03 X79.2375 Y89.6500 I0.0000 J1.5875
G01 Y95.6500
G03 X77.6500 Y97.2375 I-1.5875 J0.0000
G01 X64.8244
G03 X32.6500 Y121.2383 I-32.1619 J-9.5486
G03 X-0.9372 Y87.6843 I-0.0008 J-33.5864
G01 X-1.5878 Y32.6345
G03 X9.2122 Y7.6914 I34.2356 J0.0139
G01 Z-15.0000 F2400
G03 X66.8878 Y32.6345 I23.4377 J24.9581 F6000
G01 X66.3273 Y80.0625
G01 X77.6500
G03 X79.2375 Y81.6500 I0.0000 J1.5875
G01 Y86.3500
G03 X77.6500 Y87.9375 I-1.5875 J0.0000
G01 X58.6091
G03 X57.0224 Y86.3996 I0.0000 J-1.5875
G02 X8.2383 Y87.6500 I-24.3761 J1.2469
G02 X56.9989 Y89.3844 I24.4111 J0.0006
G03 X58.5640 Y88.0625 I1.5651 J0.2656
G01 X77.6500
G03 X79.2375 Y89.6500 I0.0000 J1.5875
G01 Y95.6500
G03 X77.6500 Y97.2375 I-1.5875 J0.0000
G01 X64.8244
G03 X32.6500 Y121.2383 I-32.1619 J-9.5486
G03 X-0.9372 Y87.6843 I-0.0008 J-33.5864
G01 X-1.5878 Y32.6345
G03 X9.2122 Y7.6914 I34.2356 J0.0139
G01 Z-16.0000 F2400
G03 X66.8878 Y32.6345 I23.4377 J24.9581 F6000
G01 X66.3273 Y80.0625
G01 X77.6500
G03 X79.2375 Y81.6500 I0.0000 J1.5875
G01 Y86.3500
G03 X77.6500 Y87.9375 I-1.5875 J0.0000
G01 X58.6091
G03 X57.0224 Y86.3996 I0.0000 J-1.5875
G02 X8.2383 Y87.6500 I-24.3761 J1.2469
G02 X56.9989 Y89.3844 I24.4111 J0.0006
G03 X58.5640 Y88.0625 I1.5651 J0.2656
G01 X77.6500
G03 X79.2375 Y89.6500 I0.0000 J1.5875
G01 Y95.6500
G03 X77.6500 Y97.2375 I-1.5875 J0.0000
G01 X64.8244
G03 X32.6500 Y121.2383 I-32.1619 J-9.5486
G03 X-0.9372 Y87.6843 I-0.0008 J-33.5864
G01 X-1.5878 Y32.6345
G03 X9.2122 Y7.6914 I34.2356 J0.0139
G01 Z-17.0000 F2400
G03 X66.8878 Y32.6345 I23.4377 J24.9581 F6000
G01 X66.3273 Y80.0625
G01 X77.6500
G03 X79.2375 Y81.6500 I0.0000 J1.5875
G01 Y86.3500
G03 X77.6500 Y87.9375 I-1.5875 J0.0000
G01 X58.6091
G03 X57.0224 Y86.3996 I0.0000 J-1.5875
G02 X8.2383 Y87.6500 I-24.3761 J1.2469
G02 X56.9989 Y89.3844 I24.4111 J0.0006
G03 X58.5640 Y88.0625 I1.5651 J0.2656
G01 X77.6500
G03 X79.2375 Y89.6500 I0.0000 J1.5875
G01 Y95.6500
G03 X77.6500 Y97.2375 I-1.5875 J0.0000
G01 X64.8244
G03 X32.6500 Y121.2383 I-32.1619 J-9.5486
G03 X-0.9372 Y87.6843 I-0.0008 J-33.5864
G01 X-1.5878 Y32.6345
G03 X9.2122 Y7.6914 I34.2356 J0.0139
G01 Z-18.0000 F2400
G03 X66.8878 Y32.6345 I23.4377 J24.9581 F6000
G01 X66.3273 Y80.0625
G01 X77.6500
G03 X79.2375 Y81.6500 I0.0000 J1.5875
G01 Y86.3500
G03 X77.6500 Y87.9375 I-1.5875 J0.0000
G01 X58.6091
G03 X57.0224 Y86.3996 I0.0000 J-1.5875
G02 X8.2383 Y87.6500 I-24.3761 J1.2469
G02 X56.9989 Y89.3844 I24.4111 J0.0006
G03 X58.5640 Y88.0625 I1.5651 J0.2656
G01 X77.6500
G03 X79.2375 Y89.6500 I0.0000 J1.5875
G01 Y95.6500
G03 X77.6500 Y97.2375 I-1.5875 J0.0000
G01 X64.8244
G03 X32.6500 Y121.2383 I-32.1619 J-9.5486
G03 X-0.9372 Y87.6843 I-0.0008 J-33.5864
G01 X-1.5878 Y32.6345
G03 X9.2122 Y7.6914 I34.2356 J0.0139
G01 Z-19.0000 F2400
G03 X66.8878 Y32.6345 I23.4377 J24.9581 F6000
G01 X66.3273 Y80.0625
G01 X77.6500
G03 X79.2375 Y81.6500 I0.0000 J1.5875
G01 Y86.3500
G03 X77.6500 Y87.9375 I-1.5875 J0.0000
G01 X58.6091
G03 X57.0224 Y86.3996 I0.0000 J-1.5875
G02 X8.2383 Y87.6500 I-24.3761 J1.2469
G02 X56.9989 Y89.3844 I24.4111 J0.0006
G03 X58.5640 Y88.0625 I1.5651 J0.2656
G01 X77.6500
G03 X79.2375 Y89.6500 I0.0000 J1.5875
G01 Y95.6500
G03 X77.6500 Y97.2375 I-1.5875 J0.0000
G01 X64.8244
G03 X32.6500 Y121.2383 I-32.1619 J-9.5486
G03 X-0.9372 Y87.6843 I-0.0008 J-33.5864
G01 X-1.5878 Y32.6345
G03 X9.2122 Y7.6914 I34.2356 J0.0139
G01 Z-19.4000 F2400
G03 X66.8878 Y32.6345 I23.4377 J24.9581 F6000
G01 X66.3273 Y80.0625
G01 X77.6500
G03 X79.2375 Y81.6500 I0.0000 J1.5875
G01 Y86.3500
G03 X77.6500 Y87.9375 I-1.5875 J0.0000
G01 X58.6091
G03 X57.0224 Y86.3996 I0.0000 J-1.5875
G02 X8.2383 Y87.6500 I-24.3761 J1.2469
G02 X56.9989 Y89.3844 I24.4111 J0.0006
G03 X58.5640 Y88.0625 I1.5651 J0.2656
G01 X77.6500
G03 X79.2375 Y89.6500 I0.0000 J1.5875
G01 Y95.6500
G03 X77.6500 Y97.2375 I-1.5875 J0.0000
G01 X64.8244
G03 X32.6500 Y121.2383 I-32.1619 J-9.5486
G03 X-0.9372 Y87.6843 I-0.0008 J-33.5864
G01 X-1.5878 Y32.6345
G03 X9.2122 Y7.6914 I34.2356 J0.0139
G00 Z5.0000
G00 X0.0000 Y0.0000

M05
M30
